presets/1.cube
#Generated by lutCreator.js
#Coded by SirSerch
#https://github.com/SirSerch/LutCreatorJs
TITLE lutCreatorJs_25
LUT_3D_SIZE 9
0.007843 0.000000 0.003922
0.027451 0.011765 0.000000
0.192157 0.003922 0.000000
0.427451 0.003922 0.000000
0.603922 0.000000 0.000000
0.776471 0.000000 0.003922
0.874510 0.000000 0.003922
0.952941 0.003922 0.000000
0.996078 0.000000 0.000000
0.231373 0.043137 0.003922
0.043137 0.117647 0.007843
0.215686 0.137255 0.007843
0.400000 0.062745 0.011765
0.525490 0.000000 0.000000
0.678431 0.003922 0.000000
0.823529 0.000000 0.000000
0.925490 0.000000 0.007843
0.996078 0.168627 0.000000
0.317647 0.184314 0.003922
0.007843 0.282353 0.000000
0.223529 0.313725 0.000000
0.454902 0.235294 0.011765
0.568627 0.152941 0.000000
0.701961 0.098039 0.003922
0.827451 0.074510 0.000000
0.913725 0.000000 0.000000
0.992157 0.360784 0.003922
0.298039 0.443137 0.000000
0.000000 0.580392 0.000000
0.203922 0.572549 0.000000
0.529412 0.564706 0.003922
0.694118 0.482353 0.003922
0.729412 0.380392 0.000000
0.811765 0.333333 0.000000
0.913725 0.321569 0.000000
1.000000 0.321569 0.011765
0.400000 0.615686 0.003922
0.007843 0.701961 0.184314
0.266667 0.701961 0.192157
0.482353 0.690196 0.094118
0.674510 0.682353 0.007843
0.819608 0.623529 0.000000
0.847059 0.529412 0.000000
0.882353 0.482353 0.000000
1.000000 0.584314 0.003922
0.203922 0.819608 0.368627
0.223529 0.827451 0.388235
0.368627 0.815686 0.372549
0.521569 0.796078 0.341176
0.662745 0.792157 0.278431
0.803922 0.788235 0.125490
0.941176 0.768627 0.000000
1.000000 0.721569 0.003922
1.000000 0.803922 0.000000
0.666667 0.866667 0.258824
0.494118 0.913725 0.498039
0.513725 0.909804 0.501961
0.603922 0.898039 0.486275
0.713725 0.901961 0.474510
0.807843 0.886275 0.396078
0.945098 0.890196 0.298039
0.992157 0.898039 0.000000
1.000000 0.964706 0.317647
0.905882 0.964706 0.600000
0.721569 1.000000 0.694118
0.741176 1.000000 0.701961
0.807843 1.000000 0.682353
0.882353 0.992157 0.662745
0.960784 0.980392 0.627451
1.000000 0.956863 0.556863
0.988235 0.941176 0.478431
0.996078 0.952941 0.541176
0.901961 0.996078 0.705882
0.792157 1.000000 0.776471
0.803922 1.000000 0.780392
0.827451 1.000000 0.768627
0.862745 0.992157 0.768627
0.913725 0.992157 0.752941
0.960784 0.984314 0.733333
1.000000 0.976471 0.721569
1.000000 0.956863 0.674510
0.000000 0.050980 0.000000
0.000000 0.078431 0.003922
0.043137 0.152941 0.000000
0.290196 0.200000 0.003922
0.423529 0.152941 0.000000
0.494118 0.109804 0.003922
0.584314 0.098039 0.003922
0.701961 0.070588 0.000000
0.815686 0.415686 0.000000
0.121569 0.211765 0.000000
0.000000 0.274510 0.000000
0.003922 0.294118 0.000000
0.137255 0.286275 0.000000
0.329412 0.282353 0.000000
0.474510 0.266667 0.000000
0.556863 0.235294 0.000000
0.670588 0.219608 0.000000
0.780392 0.517647 0.007843
0.356863 0.172549 0.000000
0.000000 0.274510 0.039216
0.207843 0.274510 0.000000
0.392157 0.207843 0.000000
0.513725 0.172549 0.000000
0.639216 0.145098 0.000000
0.745098 0.113725 0.000000
0.854902 0.066667 0.003922
0.937255 0.309804 0.113725
0.325490 0.392157 0.000000
0.000000 0.470588 0.117647
0.196078 0.486275 0.113725
0.454902 0.486275 0.007843
0.596078 0.431373 0.000000
0.647059 0.360784 0.000000
0.737255 0.329412 0.000000
0.831373 0.309804 0.000000
0.949020 0.309804 0.000000
0.415686 0.623529 0.023529
0.125490 0.701961 0.282353
0.305882 0.694118 0.270588
0.490196 0.690196 0.223529
0.678431 0.686275 0.062745
0.819608 0.643137 0.000000
0.850980 0.549020 0.007843
0.890196 0.498039 0.011765
0.996078 0.584314 0.125490
0.278431 0.823529 0.419608
0.309804 0.827451 0.439216
0.415686 0.815686 0.415686
0.549020 0.807843 0.392157
0.678431 0.796078 0.317647
0.807843 0.792157 0.200000
0.941176 0.772549 0.000000
1.000000 0.725490 0.003922
1.000000 0.843137 0.000000
0.678431 0.870588 0.309804
0.509804 0.909804 0.517647
0.537255 0.921569 0.525490
0.607843 0.909804 0.509804
0.709804 0.901961 0.474510
0.819608 0.901961 0.435294
0.941176 0.898039 0.341176
1.000000 0.894118 0.003922
1.000000 0.956863 0.360784
0.925490 0.960784 0.650980
0.756863 0.992157 0.749020
0.788235 0.984314 0.737255
0.854902 0.972549 0.729412
0.921569 0.972549 0.698039
0.996078 0.960784 0.650980
1.000000 0.945098 0.596078
0.996078 0.921569 0.552941
1.000000 0.929412 0.592157
0.909804 0.980392 0.752941
0.827451 0.996078 0.815686
0.827451 0.996078 0.815686
0.854902 0.996078 0.823529
0.901961 0.988235 0.807843
0.941176 0.980392 0.784314
0.984314 0.980392 0.756863
1.000000 0.968627 0.752941
1.000000 0.937255 0.733333
0.007843 0.039216 0.047059
0.019608 0.062745 0.078431
0.156863 0.090196 0.152941
0.396078 0.078431 0.137255
0.490196 0.031373 0.101961
0.525490 0.003922 0.070588
0.615686 0.000000 0.074510
0.729412 0.003922 0.058824
0.827451 0.443137 0.094118
0.168627 0.227451 0.000000
0.007843 0.254902 0.078431
0.000000 0.274510 0.054902
0.247059 0.270588 0.000000
0.384314 0.207843 0.000000
0.482353 0.196078 0.027451
0.588235 0.180392 0.027451
0.698039 0.152941 0.000000
0.760784 0.529412 0.000000
0.372549 0.176471 0.078431
0.094118 0.247059 0.227451
0.207843 0.258824 0.231373
0.392157 0.235294 0.227451
0.545098 0.235294 0.215686
0.674510 0.219608 0.223529
0.776471 0.203922 0.207843
0.878431 0.180392 0.180392
0.968627 0.364706 0.317647
0.333333 0.439216 0.019608
0.062745 0.474510 0.305882
0.231373 0.478431 0.309804
0.454902 0.486275 0.262745
0.588235 0.431373 0.231373
0.654902 0.396078 0.258824
0.764706 0.380392 0.235294
0.858824 0.360784 0.223529
0.968627 0.349020 0.160784
0.454902 0.643137 0.211765
0.235294 0.694118 0.415686
0.329412 0.686275 0.411765
0.513725 0.686275 0.392157
0.674510 0.670588 0.309804
0.792157 0.611765 0.235294
0.819608 0.545098 0.262745
0.890196 0.509804 0.231373
0.988235 0.596078 0.352941
0.325490 0.819608 0.501961
0.341176 0.823529 0.509804
0.427451 0.815686 0.501961
0.552941 0.800000 0.482353
0.666667 0.796078 0.439216
0.811765 0.784314 0.376471
0.929412 0.760784 0.258824
1.000000 0.709804 0.227451
1.000000 0.792157 0.337255
0.682353 0.862745 0.435294
0.529412 0.901961 0.580392
0.541176 0.909804 0.572549
0.615686 0.905882 0.564706
0.717647 0.890196 0.549020
0.815686 0.894118 0.505882
0.933333 0.890196 0.435294
0.992157 0.890196 0.282353
1.000000 0.952941 0.474510
0.925490 0.960784 0.650980
0.729412 0.996078 0.756863
0.741176 1.000000 0.760784
0.800000 0.996078 0.749020
0.886275 0.988235 0.733333
0.952941 0.976471 0.701961
1.000000 0.956863 0.643137
0.996078 0.929412 0.568627
0.996078 0.956863 0.623529
0.909804 0.988235 0.749020
0.800000 1.000000 0.811765
0.811765 0.996078 0.815686
0.847059 1.000000 0.807843
0.874510 1.000000 0.807843
0.917647 0.988235 0.800000
0.952941 0.980392 0.776471
1.000000 0.976471 0.760784
0.992157 0.952941 0.713725
0.007843 0.098039 0.129412
0.000000 0.125490 0.160784
0.105882 0.180392 0.203922
0.313725 0.152941 0.270588
0.423529 0.145098 0.207843
0.494118 0.156863 0.192157
0.611765 0.180392 0.192157
0.725490 0.172549 0.196078
0.847059 0.466667 0.337255
0.207843 0.247059 0.007843
0.003922 0.290196 0.172549
0.000000 0.301961 0.168627
0.086275 0.290196 0.141176
0.345098 0.301961 0.090196
0.470588 0.282353 0.141176
0.592157 0.278431 0.141176
0.705882 0.274510 0.129412
0.760784 0.521569 0.274510
0.450980 0.027451 0.325490
0.207843 0.243137 0.270588
0.223529 0.243137 0.317647
0.368627 0.176471 0.360784
0.529412 0.196078 0.356863
0.658824 0.235294 0.360784
0.764706 0.258824 0.368627
0.874510 0.258824 0.364706
0.980392 0.423529 0.517647
0.360784 0.321569 0.313725
0.203922 0.396078 0.380392
0.270588 0.407843 0.384314
0.403922 0.423529 0.400000
0.525490 0.415686 0.403922
0.635294 0.415686 0.411765
0.749020 0.415686 0.396078
0.854902 0.403922 0.384314
0.968627 0.388235 0.349020
0.466667 0.607843 0.427451
0.349020 0.682353 0.552941
0.403922 0.674510 0.552941
0.505882 0.658824 0.537255
0.650980 0.643137 0.482353
0.733333 0.596078 0.439216
0.788235 0.549020 0.435294
0.886275 0.533333 0.400000
0.984314 0.615686 0.482353
0.415686 0.815686 0.627451
0.431373 0.815686 0.631373
0.494118 0.803922 0.627451
0.576471 0.803922 0.607843
0.682353 0.796078 0.576471
0.803922 0.784314 0.533333
0.909804 0.760784 0.443137
0.980392 0.713725 0.427451
0.996078 0.835294 0.490196
0.694118 0.866667 0.525490
0.545098 0.901961 0.662745
0.556863 0.909804 0.666667
0.619608 0.901961 0.650980
0.709804 0.905882 0.627451
0.811765 0.905882 0.600000
0.933333 0.894118 0.552941
0.988235 0.890196 0.435294
1.000000 0.956863 0.572549
0.917647 0.925490 0.772549
0.764706 0.972549 0.854902
0.764706 0.976471 0.843137
0.815686 0.972549 0.839216
0.901961 0.972549 0.815686
0.984314 0.952941 0.772549
1.000000 0.929412 0.733333
0.996078 0.909804 0.717647
0.992157 0.929412 0.725490
0.913725 0.976471 0.831373
0.839216 0.996078 0.890196
0.854902 0.988235 0.890196
0.874510 0.988235 0.878431
0.909804 0.980392 0.886275
0.925490 0.976471 0.866667
0.976471 0.972549 0.854902
1.000000 0.964706 0.827451
1.000000 0.945098 0.807843
0.098039 0.188235 0.352941
0.125490 0.200000 0.364706
0.168627 0.192157 0.396078
0.309804 0.121569 0.458824
0.466667 0.000000 0.427451
0.513725 0.000000 0.364706
0.631373 0.054902 0.368627
0.756863 0.109804 0.376471
0.843137 0.501961 0.537255
0.223529 0.227451 0.235294
0.172549 0.243137 0.298039
0.215686 0.247059 0.290196
0.239216 0.247059 0.329412
0.376471 0.184314 0.360784
0.490196 0.211765 0.337255
0.615686 0.235294 0.364706
0.717647 0.254902 0.356863
0.709804 0.513725 0.517647
0.431373 0.035294 0.411765
0.258824 0.278431 0.396078
0.270588 0.290196 0.415686
0.341176 0.235294 0.443137
0.509804 0.160784 0.482353
0.658824 0.196078 0.501961
0.772549 0.227451 0.490196
0.874510 0.247059 0.482353
0.956863 0.392157 0.600000
0.372549 0.372549 0.372549
0.349020 0.403922 0.447059
0.380392 0.407843 0.439216
0.423529 0.435294 0.470588
0.556863 0.384314 0.521569
0.658824 0.407843 0.513725
0.756863 0.423529 0.505882
0.850980 0.411765 0.505882
0.976471 0.376471 0.486275
0.490196 0.588235 0.505882
0.415686 0.576471 0.584314
0.450980 0.592157 0.584314
0.525490 0.603922 0.596078
0.611765 0.588235 0.588235
0.705882 0.584314 0.576471
0.792157 0.564706 0.560784
0.894118 0.545098 0.529412
1.000000 0.607843 0.639216
0.478431 0.800000 0.713725
0.494118 0.800000 0.713725
0.529412 0.796078 0.705882
0.603922 0.780392 0.698039
0.670588 0.772549 0.666667
0.768627 0.756863 0.635294
0.862745 0.709804 0.580392
0.933333 0.682353 0.576471
1.000000 0.756863 0.627451
0.678431 0.850980 0.643137
0.560784 0.901961 0.737255
0.580392 0.898039 0.737255
0.619608 0.898039 0.733333
0.698039 0.890196 0.705882
0.807843 0.894118 0.701961
0.913725 0.882353 0.639216
0.996078 0.862745 0.572549
1.000000 0.945098 0.650980
0.898039 0.937255 0.792157
0.737255 0.984314 0.878431
0.752941 0.988235 0.890196
0.788235 0.984314 0.878431
0.843137 0.980392 0.854902
0.921569 0.976471 0.835294
1.000000 0.956863 0.780392
1.000000 0.921569 0.745098
0.992157 0.933333 0.764706
0.917647 0.976471 0.854902
0.811765 1.000000 0.890196
0.827451 0.996078 0.890196
0.858824 0.984314 0.894118
0.886275 0.984314 0.898039
0.921569 0.980392 0.890196
0.952941 0.972549 0.882353
1.000000 0.976471 0.874510
1.000000 0.956863 0.831373
0.164706 0.243137 0.349020
0.176471 0.243137 0.352941
0.200000 0.243137 0.368627
0.247059 0.223529 0.403922
0.352941 0.168627 0.443137
0.470588 0.086275 0.419608
0.643137 0.141176 0.466667
0.752941 0.180392 0.458824
0.850980 0.447059 0.623529
0.247059 0.223529 0.372549
0.184314 0.258824 0.313725
0.200000 0.266667 0.298039
0.235294 0.262745 0.294118
0.282353 0.270588 0.337255
0.450980 0.250980 0.411765
0.600000 0.286275 0.431373
0.713725 0.309804 0.427451
0.737255 0.498039 0.568627
0.368627 0.141176 0.474510
0.321569 0.333333 0.501961
0.337255 0.333333 0.498039
0.368627 0.294118 0.509804
0.466667 0.227451 0.533333
0.611765 0.176471 0.580392
0.752941 0.176471 0.584314
0.850980 0.188235 0.584314
0.909804 0.301961 0.698039
0.376471 0.258824 0.454902
0.407843 0.439216 0.490196
0.415686 0.443137 0.505882
0.439216 0.427451 0.533333
0.494118 0.380392 0.552941
0.623529 0.356863 0.596078
0.729412 0.364706 0.588235
0.819608 0.372549 0.576471
0.952941 0.341176 0.580392
0.501961 0.521569 0.533333
0.482353 0.549020 0.580392
0.498039 0.556863 0.584314
0.545098 0.564706 0.588235
0.588235 0.580392 0.631373
0.690196 0.556863 0.662745
0.792157 0.549020 0.647059
0.909804 0.541176 0.643137
1.000000 0.596078 0.701961
0.525490 0.737255 0.737255
0.537255 0.741176 0.733333
0.564706 0.737255 0.733333
0.619608 0.745098 0.741176
0.686275 0.749020 0.745098
0.745098 0.749020 0.729412
0.827451 0.709804 0.701961
0.960784 0.694118 0.682353
0.992157 0.768627 0.733333
0.666667 0.835294 0.717647
0.600000 0.894118 0.811765
0.615686 0.898039 0.819608
0.654902 0.894118 0.823529
0.701961 0.890196 0.796078
0.764706 0.878431 0.768627
0.886275 0.870588 0.733333
0.996078 0.831373 0.666667
1.000000 0.941176 0.749020
0.886275 0.843137 0.874510
0.807843 0.901961 0.909804
0.819608 0.901961 0.921569
0.835294 0.905882 0.921569
0.870588 0.901961 0.913725
0.929412 0.905882 0.921569
1.000000 0.886275 0.905882
1.000000 0.882353 0.874510
1.000000 0.933333 0.901961
0.917647 0.968627 0.933333
0.866667 0.980392 0.960784
0.866667 0.984314 0.945098
0.890196 0.980392 0.949020
0.913725 0.980392 0.949020
0.941176 0.968627 0.937255
0.968627 0.968627 0.937255
1.000000 0.960784 0.925490
0.996078 0.956863 0.921569
0.235294 0.247059 0.415686
0.250980 0.262745 0.431373
0.270588 0.262745 0.447059
0.309804 0.243137 0.458824
0.364706 0.200000 0.482353
0.470588 0.109804 0.505882
0.623529 0.000000 0.572549
0.752941 0.000000 0.576471
0.807843 0.360784 0.737255
0.258824 0.239216 0.400000
0.254902 0.294118 0.400000
0.274510 0.301961 0.415686
0.298039 0.298039 0.447059
0.341176 0.262745 0.454902
0.439216 0.215686 0.486275
0.584314 0.172549 0.533333
0.701961 0.156863 0.545098
0.678431 0.403922 0.650980
0.368627 0.188235 0.470588
0.411765 0.411765 0.615686
0.435294 0.419608 0.619608
0.450980 0.392157 0.623529
0.517647 0.345098 0.647059
0.611765 0.266667 0.666667
0.752941 0.192157 0.686275
0.854902 0.149020 0.678431
0.925490 0.294118 0.803922
0.423529 0.392157 0.545098
0.462745 0.490196 0.600000
0.474510 0.494118 0.611765
0.486275 0.478431 0.631373
0.525490 0.435294 0.647059
0.600000 0.392157 0.658824
0.733333 0.349020 0.690196
0.850980 0.345098 0.698039
0.960784 0.317647 0.698039
0.521569 0.549020 0.619608
0.533333 0.572549 0.611765
0.560784 0.576471 0.623529
0.576471 0.588235 0.662745
0.596078 0.576471 0.694118
0.662745 0.549020 0.721569
0.803922 0.505882 0.756863
0.917647 0.494118 0.737255
1.000000 0.552941 0.827451
0.596078 0.682353 0.725490
0.596078 0.686275 0.717647
0.611765 0.682353 0.729412
0.643137 0.682353 0.721569
0.690196 0.690196 0.721569
0.725490 0.698039 0.768627
0.839216 0.666667 0.807843
0.960784 0.647059 0.784314
0.996078 0.694118 0.835294
0.690196 0.745098 0.756863
0.623529 0.780392 0.776471
0.623529 0.780392 0.780392
0.658824 0.780392 0.788235
0.694118 0.796078 0.800000
0.745098 0.800000 0.811765
0.811765 0.788235 0.788235
0.945098 0.768627 0.756863
0.968627 0.839216 0.819608
0.878431 0.835294 0.898039
0.800000 0.898039 0.925490
0.803922 0.901961 0.921569
0.827451 0.898039 0.937255
0.858824 0.901961 0.925490
0.905882 0.894118 0.921569
0.984314 0.894118 0.972549
0.996078 0.882353 0.952941
0.996078 0.925490 0.980392
0.937255 0.956863 0.972549
0.843137 0.984314 0.968627
0.847059 0.984314 0.960784
0.866667 0.980392 0.964706
0.909804 0.972549 0.968627
0.929412 0.976471 0.960784
0.949020 0.968627 0.952941
0.988235 0.968627 0.945098
1.000000 0.952941 0.941176
0.384314 0.403922 0.568627
0.396078 0.407843 0.576471
0.407843 0.411765 0.592157
0.423529 0.396078 0.600000
0.466667 0.368627 0.623529
0.533333 0.325490 0.639216
0.647059 0.176471 0.662745
0.772549 0.113725 0.698039
0.827451 0.321569 0.784314
0.341176 0.294118 0.474510
0.372549 0.415686 0.525490
0.392157 0.415686 0.549020
0.400000 0.415686 0.552941
0.423529 0.403922 0.564706
0.486275 0.372549 0.600000
0.596078 0.282353 0.615686
0.721569 0.223529 0.635294
0.698039 0.407843 0.709804
0.482353 0.356863 0.643137
0.521569 0.494118 0.698039
0.533333 0.498039 0.713725
0.556863 0.478431 0.725490
0.584314 0.439216 0.741176
0.662745 0.372549 0.760784
0.780392 0.219608 0.776471
0.890196 0.133333 0.796078
0.886275 0.305882 0.847059
0.513725 0.411765 0.658824
0.541176 0.537255 0.694118
0.537255 0.545098 0.698039
0.549020 0.525490 0.705882
0.572549 0.498039 0.717647
0.639216 0.450980 0.741176
0.749020 0.364706 0.768627
0.874510 0.317647 0.796078
0.964706 0.270588 0.796078
0.580392 0.584314 0.701961
0.607843 0.631373 0.717647
0.611765 0.627451 0.725490
0.619608 0.623529 0.741176
0.627451 0.600000 0.764706
0.678431 0.568627 0.796078
0.800000 0.505882 0.839216
0.929412 0.450980 0.847059
0.984314 0.513725 0.898039
0.654902 0.690196 0.749020
0.654902 0.694118 0.741176
0.662745 0.694118 0.745098
0.682353 0.690196 0.741176
0.698039 0.694118 0.756863
0.717647 0.690196 0.811765
0.827451 0.658824 0.878431
0.976471 0.607843 0.898039
1.000000 0.658824 0.956863
0.690196 0.717647 0.756863
0.666667 0.760784 0.800000
0.670588 0.764706 0.803922
0.686275 0.764706 0.800000
0.713725 0.760784 0.807843
0.741176 0.752941 0.788235
0.784314 0.756863 0.827451
0.952941 0.729412 0.905882
0.894118 0.823529 0.917647
0.886275 0.823529 1.000000
0.850980 0.870588 0.949020
0.850980 0.878431 0.952941
0.870588 0.874510 0.945098
0.886275 0.878431 0.964706
0.917647 0.874510 1.000000
1.000000 0.850980 1.000000
1.000000 0.827451 1.000000
1.000000 0.898039 0.996078
0.964706 0.952941 0.996078
0.921569 0.972549 1.000000
0.917647 0.972549 1.000000
0.925490 0.964706 1.000000
0.937255 0.952941 0.988235
0.952941 0.956863 0.976471
0.960784 0.949020 0.984314
0.992157 0.952941 0.988235
1.000000 0.960784 0.984314
0.576471 0.537255 0.772549
0.580392 0.549020 0.784314
0.588235 0.541176 0.784314
0.611765 0.521569 0.803922
0.639216 0.494118 0.807843
0.701961 0.443137 0.827451
0.800000 0.345098 0.835294
0.878431 0.145098 0.847059
0.866667 0.498039 0.929412
0.501961 0.443137 0.666667
0.537255 0.529412 0.721569
0.545098 0.525490 0.737255
0.572549 0.517647 0.749020
0.596078 0.490196 0.752941
0.650980 0.447059 0.772549
0.729412 0.364706 0.784314
0.827451 0.211765 0.803922
0.784314 0.525490 0.878431
0.662745 0.494118 0.843137
0.658824 0.611765 0.870588
0.674510 0.607843 0.874510
0.694118 0.592157 0.878431
0.721569 0.556863 0.886275
0.776471 0.509804 0.905882
0.866667 0.415686 0.929412
0.952941 0.235294 0.933333
0.937255 0.407843 0.952941
0.635294 0.552941 0.815686
0.654902 0.643137 0.858824
0.650980 0.631373 0.850980
0.674510 0.619608 0.862745
0.709804 0.592157 0.882353
0.760784 0.556863 0.890196
0.835294 0.474510 0.909804
0.929412 0.352941 0.913725
1.000000 0.294118 0.925490
0.654902 0.639216 0.839216
0.674510 0.694118 0.850980
0.678431 0.686275 0.874510
0.686275 0.678431 0.874510
0.713725 0.650980 0.894118
0.764706 0.631373 0.921569
0.847059 0.576471 0.941176
0.960784 0.454902 0.949020
0.980392 0.505882 0.960784
0.737255 0.760784 0.847059
0.737255 0.760784 0.854902
0.733333 0.756863 0.850980
0.725490 0.752941 0.866667
0.713725 0.721569 0.882353
0.741176 0.690196 0.901961
0.819608 0.650980 0.933333
0.945098 0.588235 0.960784
0.964706 0.615686 0.984314
0.772549 0.780392 0.862745
0.749020 0.811765 0.901961
0.749020 0.815686 0.886275
0.760784 0.811765 0.878431
0.792157 0.803922 0.878431
0.780392 0.796078 0.901961
0.800000 0.749020 0.929412
0.886275 0.686275 0.945098
0.913725 0.764706 0.988235
0.882353 0.945098 0.996078
0.847059 0.937255 0.992157
0.839216 0.945098 0.980392
0.854902 0.941176 0.996078
0.874510 0.945098 0.992157
0.913725 0.945098 0.996078
0.945098 0.941176 0.996078
0.972549 0.913725 1.000000
0.980392 0.949020 0.992157
0.862745 0.984314 0.996078
0.827451 0.980392 1.000000
0.831373 0.980392 0.992157
0.850980 0.984314 0.992157
0.878431 0.980392 0.984314
0.917647 0.976471 0.996078
0.941176 0.980392 0.984314
0.972549 0.976471 0.984314
0.996078 0.976471 0.992157
