presets/1.cube
#Generated by lutCreator.js
#Coded by SirSerch
#https://github.com/SirSerch/LutCreatorJs
TITLE lutCreatorJs_25
LUT_3D_SIZE 25
0.007843 0.000000 0.003922
0.000000 0.007843 0.003922
0.003922 0.003922 0.000000
0.027451 0.011765 0.000000
0.062745 0.019608 0.000000
0.125490 0.015686 0.011765
0.192157 0.003922 0.000000
0.282353 0.003922 0.000000
0.360784 0.003922 0.000000
0.427451 0.003922 0.000000
0.486275 0.000000 0.000000
0.541176 0.000000 0.007843
0.603922 0.000000 0.000000
0.658824 0.000000 0.000000
0.725490 0.003922 0.003922
0.776471 0.000000 0.003922
0.800000 0.000000 0.000000
0.839216 0.000000 0.007843
0.874510 0.000000 0.003922
0.898039 0.000000 0.000000
0.921569 0.000000 0.000000
0.952941 0.003922 0.000000
0.992157 0.000000 0.007843
1.000000 0.003922 0.003922
0.996078 0.000000 0.000000
0.121569 0.000000 0.000000
0.015686 0.027451 0.000000
0.019608 0.023529 0.000000
0.047059 0.035294 0.000000
0.078431 0.039216 0.003922
0.129412 0.035294 0.000000
0.200000 0.031373 0.007843
0.290196 0.000000 0.003922
0.352941 0.003922 0.000000
0.411765 0.000000 0.000000
0.466667 0.000000 0.000000
0.529412 0.000000 0.000000
0.580392 0.000000 0.003922
0.627451 0.000000 0.015686
0.674510 0.000000 0.000000
0.717647 0.000000 0.000000
0.796078 0.003922 0.003922
0.835294 0.000000 0.000000
0.854902 0.000000 0.003922
0.886275 0.000000 0.003922
0.917647 0.000000 0.000000
0.952941 0.003922 0.000000
0.960784 0.000000 0.007843
0.996078 0.000000 0.007843
0.996078 0.000000 0.000000
0.082353 0.031373 0.000000
0.019608 0.050980 0.007843
0.039216 0.047059 0.000000
0.054902 0.058824 0.003922
0.098039 0.062745 0.003922
0.141176 0.066667 0.000000
0.215686 0.066667 0.000000
0.290196 0.047059 0.003922
0.356863 0.011765 0.003922
0.392157 0.000000 0.000000
0.443137 0.003922 0.000000
0.501961 0.000000 0.000000
0.556863 0.000000 0.003922
0.592157 0.003922 0.000000
0.650980 0.003922 0.000000
0.701961 0.000000 0.011765
0.752941 0.000000 0.000000
0.807843 0.000000 0.000000
0.854902 0.000000 0.003922
0.870588 0.000000 0.000000
0.905882 0.007843 0.000000
0.941176 0.000000 0.003922
0.952941 0.003922 0.000000
0.996078 0.000000 0.000000
1.000000 0.003922 0.003922
0.231373 0.043137 0.003922
0.003922 0.105882 0.000000
0.015686 0.105882 0.000000
0.043137 0.117647 0.007843
0.094118 0.121569 0.000000
0.141176 0.129412 0.000000
0.215686 0.137255 0.007843
0.286275 0.109804 0.000000
0.337255 0.098039 0.000000
0.400000 0.062745 0.011765
0.431373 0.019608 0.003922
0.482353 0.003922 0.000000
0.525490 0.000000 0.000000
0.580392 0.000000 0.000000
0.627451 0.000000 0.000000
0.678431 0.003922 0.000000
0.721569 0.000000 0.000000
0.776471 0.000000 0.007843
0.823529 0.000000 0.000000
0.862745 0.003922 0.000000
0.901961 0.000000 0.007843
0.925490 0.000000 0.007843
0.941176 0.003922 0.015686
0.992157 0.000000 0.000000
0.996078 0.168627 0.000000
0.203922 0.129412 0.003922
0.003922 0.184314 0.000000
0.000000 0.196078 0.007843
0.000000 0.196078 0.003922
0.035294 0.200000 0.003922
0.125490 0.196078 0.007843
0.207843 0.200000 0.011765
0.274510 0.180392 0.000000
0.329412 0.168627 0.000000
0.376471 0.149020 0.000000
0.403922 0.125490 0.000000
0.458824 0.105882 0.000000
0.513725 0.062745 0.000000
0.549020 0.019608 0.003922
0.615686 0.000000 0.000000
0.674510 0.000000 0.000000
0.713725 0.000000 0.000000
0.749020 0.007843 0.000000
0.800000 0.000000 0.011765
0.858824 0.003922 0.000000
0.886275 0.000000 0.003922
0.921569 0.000000 0.000000
0.952941 0.003922 0.000000
0.996078 0.000000 0.007843
0.996078 0.000000 0.000000
0.000000 0.211765 0.003922
0.000000 0.223529 0.000000
0.003922 0.219608 0.000000
0.000000 0.227451 0.000000
0.003922 0.219608 0.003922
0.149020 0.215686 0.003922
0.250980 0.211765 0.003922
0.329412 0.180392 0.000000
0.380392 0.152941 0.003922
0.423529 0.121569 0.003922
0.470588 0.098039 0.011765
0.505882 0.070588 0.003922
0.564706 0.027451 0.000000
0.603922 0.000000 0.000000
0.654902 0.000000 0.000000
0.721569 0.007843 0.000000
0.764706 0.000000 0.011765
0.800000 0.007843 0.000000
0.835294 0.003922 0.000000
0.862745 0.000000 0.000000
0.890196 0.003922 0.007843
0.921569 0.003922 0.000000
0.941176 0.000000 0.000000
0.956863 0.000000 0.000000
1.000000 0.172549 0.000000
0.317647 0.184314 0.003922
0.000000 0.266667 0.003922
0.000000 0.274510 0.000000
0.007843 0.282353 0.000000
0.007843 0.298039 0.003922
0.113725 0.305882 0.000000
0.223529 0.313725 0.000000
0.360784 0.317647 0.007843
0.415686 0.286275 0.000000
0.454902 0.235294 0.011765
0.482353 0.200000 0.003922
0.521569 0.176471 0.000000
0.568627 0.152941 0.000000
0.623529 0.137255 0.000000
0.666667 0.121569 0.000000
0.701961 0.098039 0.003922
0.741176 0.070588 0.003922
0.811765 0.090196 0.000000
0.827451 0.074510 0.000000
0.866667 0.058824 0.003922
0.913725 0.050980 0.003922
0.913725 0.000000 0.000000
0.941176 0.000000 0.000000
0.968627 0.000000 0.000000
0.992157 0.360784 0.003922
0.219608 0.254902 0.000000
0.000000 0.352941 0.000000
0.000000 0.376471 0.000000
0.000000 0.396078 0.003922
0.000000 0.400000 0.000000
0.070588 0.403922 0.000000
0.227451 0.419608 0.007843
0.352941 0.419608 0.003922
0.478431 0.411765 0.000000
0.533333 0.376471 0.003922
0.549020 0.329412 0.000000
0.572549 0.286275 0.015686
0.600000 0.247059 0.003922
0.631373 0.227451 0.000000
0.666667 0.203922 0.007843
0.705882 0.196078 0.000000
0.745098 0.176471 0.000000
0.784314 0.176471 0.003922
0.831373 0.184314 0.007843
0.866667 0.192157 0.000000
0.909804 0.184314 0.003922
0.909804 0.137255 0.003922
0.952941 0.098039 0.000000
0.972549 0.000000 0.000000
1.000000 0.313725 0.015686
0.403922 0.321569 0.003922
0.000000 0.470588 0.003922
0.000000 0.498039 0.000000
0.003922 0.498039 0.003922
0.000000 0.513725 0.000000
0.000000 0.513725 0.000000
0.180392 0.513725 0.003922
0.313725 0.509804 0.000000
0.454902 0.505882 0.000000
0.568627 0.513725 0.000000
0.623529 0.462745 0.000000
0.639216 0.396078 0.000000
0.654902 0.352941 0.000000
0.662745 0.325490 0.000000
0.682353 0.298039 0.003922
0.709804 0.286275 0.003922
0.741176 0.278431 0.003922
0.776471 0.262745 0.000000
0.819608 0.258824 0.000000
0.862745 0.262745 0.000000
0.898039 0.258824 0.000000
0.905882 0.219608 0.000000
0.945098 0.200000 0.003922
1.000000 0.227451 0.019608
1.000000 0.450980 0.000000
0.298039 0.443137 0.000000
0.000000 0.556863 0.000000
0.000000 0.576471 0.000000
0.000000 0.580392 0.000000
0.000000 0.572549 0.000000
0.003922 0.580392 0.000000
0.203922 0.572549 0.000000
0.325490 0.576471 0.000000
0.423529 0.572549 0.003922
0.529412 0.564706 0.003922
0.627451 0.568627 0.007843
0.678431 0.537255 0.003922
0.694118 0.482353 0.003922
0.701961 0.443137 0.011765
0.713725 0.403922 0.000000
0.729412 0.380392 0.000000
0.752941 0.356863 0.000000
0.780392 0.341176 0.003922
0.811765 0.333333 0.000000
0.854902 0.341176 0.000000
0.886275 0.329412 0.000000
0.913725 0.321569 0.000000
0.949020 0.325490 0.000000
0.980392 0.309804 0.003922
1.000000 0.321569 0.011765
0.000000 0.623529 0.003922
0.007843 0.615686 0.003922
0.003922 0.623529 0.007843
0.000000 0.627451 0.019608
0.003922 0.631373 0.003922
0.011765 0.623529 0.000000
0.152941 0.623529 0.000000
0.301961 0.615686 0.000000
0.403922 0.615686 0.003922
0.505882 0.611765 0.003922
0.588235 0.607843 0.000000
0.670588 0.607843 0.000000
0.733333 0.568627 0.000000
0.745098 0.517647 0.000000
0.749020 0.478431 0.003922
0.760784 0.443137 0.000000
0.764706 0.419608 0.000000
0.776471 0.400000 0.000000
0.811765 0.388235 0.000000
0.835294 0.396078 0.003922
0.862745 0.396078 0.003922
0.898039 0.372549 0.000000
0.941176 0.356863 0.003922
0.976471 0.345098 0.000000
0.996078 0.466667 0.007843
0.482353 0.560784 0.000000
0.007843 0.654902 0.141176
0.000000 0.694118 0.168627
0.000000 0.666667 0.078431
0.000000 0.662745 0.101961
0.062745 0.662745 0.098039
0.203922 0.662745 0.101961
0.305882 0.658824 0.074510
0.396078 0.658824 0.003922
0.490196 0.650980 0.000000
0.564706 0.654902 0.003922
0.647059 0.650980 0.007843
0.721569 0.647059 0.003922
0.768627 0.619608 0.000000
0.796078 0.576471 0.000000
0.796078 0.537255 0.000000
0.796078 0.501961 0.000000
0.815686 0.478431 0.011765
0.823529 0.454902 0.000000
0.843137 0.435294 0.000000
0.870588 0.431373 0.007843
0.898039 0.415686 0.007843
0.929412 0.415686 0.000000
0.968627 0.415686 0.000000
0.984314 0.584314 0.098039
0.400000 0.615686 0.003922
0.003922 0.698039 0.180392
0.003922 0.721569 0.235294
0.007843 0.701961 0.184314
0.113725 0.698039 0.188235
0.188235 0.694118 0.188235
0.266667 0.701961 0.192157
0.337255 0.694118 0.188235
0.411765 0.694118 0.160784
0.482353 0.690196 0.094118
0.556863 0.682353 0.003922
0.611765 0.686275 0.000000
0.674510 0.682353 0.007843
0.756863 0.678431 0.000000
0.800000 0.666667 0.007843
0.819608 0.623529 0.000000
0.835294 0.580392 0.007843
0.835294 0.556863 0.007843
0.847059 0.529412 0.000000
0.862745 0.517647 0.000000
0.878431 0.505882 0.000000
0.882353 0.482353 0.000000
0.929412 0.462745 0.000000
0.972549 0.466667 0.000000
1.000000 0.584314 0.003922
0.521569 0.631373 0.000000
0.094118 0.713725 0.278431
0.000000 0.745098 0.278431
0.188235 0.717647 0.243137
0.235294 0.721569 0.250980
0.258824 0.721569 0.250980
0.305882 0.717647 0.254902
0.364706 0.709804 0.266667
0.415686 0.721569 0.243137
0.498039 0.705882 0.196078
0.541176 0.701961 0.152941
0.600000 0.709804 0.082353
0.666667 0.701961 0.000000
0.721569 0.701961 0.000000
0.784314 0.701961 0.000000
0.839216 0.682353 0.000000
0.854902 0.650980 0.007843
0.854902 0.619608 0.000000
0.858824 0.584314 0.000000
0.874510 0.556863 0.000000
0.901961 0.541176 0.011765
0.909804 0.533333 0.000000
0.925490 0.525490 0.000000
0.949020 0.513725 0.000000
1.000000 0.694118 0.098039
0.466667 0.682353 0.121569
0.239216 0.745098 0.290196
0.117647 0.756863 0.329412
0.235294 0.745098 0.321569
0.286275 0.749020 0.317647
0.317647 0.741176 0.313725
0.352941 0.741176 0.313725
0.407843 0.733333 0.309804
0.447059 0.729412 0.298039
0.498039 0.725490 0.282353
0.552941 0.713725 0.235294
0.596078 0.721569 0.200000
0.650980 0.717647 0.164706
0.698039 0.721569 0.086275
0.752941 0.737255 0.011765
0.803922 0.725490 0.000000
0.854902 0.717647 0.011765
0.878431 0.694118 0.003922
0.886275 0.662745 0.000000
0.894118 0.639216 0.003922
0.909804 0.619608 0.000000
0.929412 0.603922 0.000000
0.945098 0.596078 0.000000
0.984314 0.588235 0.000000
1.000000 0.592157 0.000000
0.203922 0.819608 0.368627
0.203922 0.823529 0.388235
0.203922 0.823529 0.392157
0.223529 0.827451 0.388235
0.266667 0.815686 0.388235
0.301961 0.819608 0.380392
0.368627 0.815686 0.372549
0.419608 0.811765 0.372549
0.462745 0.811765 0.349020
0.521569 0.796078 0.341176
0.568627 0.800000 0.329412
0.607843 0.800000 0.305882
0.662745 0.792157 0.278431
0.701961 0.784314 0.239216
0.752941 0.788235 0.188235
0.803922 0.788235 0.125490
0.866667 0.780392 0.000000
0.898039 0.784314 0.007843
0.941176 0.768627 0.000000
0.964706 0.752941 0.000000
0.996078 0.749020 0.007843
1.000000 0.721569 0.003922
0.992157 0.690196 0.000000
1.000000 0.678431 0.000000
1.000000 0.803922 0.000000
0.623529 0.796078 0.015686
0.101961 0.874510 0.462745
0.349020 0.850980 0.407843
0.380392 0.839216 0.419608
0.392157 0.847059 0.411765
0.403922 0.843137 0.419608
0.423529 0.839216 0.415686
0.454902 0.843137 0.419608
0.494118 0.839216 0.407843
0.537255 0.839216 0.400000
0.576471 0.839216 0.396078
0.627451 0.823529 0.372549
0.662745 0.823529 0.352941
0.701961 0.823529 0.325490
0.745098 0.815686 0.282353
0.796078 0.815686 0.258824
0.847059 0.823529 0.211765
0.894118 0.807843 0.125490
0.949020 0.811765 0.011765
0.992157 0.803922 0.000000
1.000000 0.780392 0.015686
0.996078 0.768627 0.000000
1.000000 0.756863 0.007843
0.996078 0.721569 0.003922
0.996078 0.901961 0.000000
0.572549 0.850980 0.247059
0.305882 0.890196 0.490196
0.384314 0.886275 0.458824
0.435294 0.870588 0.458824
0.450980 0.874510 0.478431
0.454902 0.882353 0.470588
0.474510 0.874510 0.474510
0.505882 0.870588 0.454902
0.537255 0.862745 0.454902
0.568627 0.866667 0.439216
0.611765 0.874510 0.431373
0.643137 0.866667 0.423529
0.686275 0.858824 0.423529
0.717647 0.854902 0.392157
0.760784 0.858824 0.360784
0.803922 0.854902 0.341176
0.839216 0.858824 0.301961
0.882353 0.854902 0.254902
0.929412 0.854902 0.207843
0.972549 0.858824 0.105882
0.992157 0.866667 0.000000
1.000000 0.847059 0.000000
1.000000 0.819608 0.003922
0.992157 0.811765 0.000000
1.000000 0.909804 0.062745
0.666667 0.866667 0.258824
0.270588 0.941176 0.533333
0.466667 0.905882 0.513725
0.494118 0.913725 0.498039
0.498039 0.898039 0.505882
0.498039 0.909804 0.498039
0.513725 0.909804 0.501961
0.525490 0.913725 0.498039
0.564706 0.905882 0.494118
0.603922 0.898039 0.486275
0.635294 0.898039 0.482353
0.670588 0.894118 0.474510
0.713725 0.901961 0.474510
0.741176 0.898039 0.447059
0.772549 0.894118 0.427451
0.807843 0.886275 0.396078
0.850980 0.898039 0.364706
0.898039 0.894118 0.329412
0.945098 0.890196 0.298039
0.980392 0.894118 0.211765
0.996078 0.894118 0.105882
0.992157 0.898039 0.000000
1.000000 0.878431 0.000000
1.000000 0.843137 0.003922
1.000000 0.964706 0.317647
0.647059 0.925490 0.368627
0.443137 0.956863 0.549020
0.498039 0.949020 0.541176
0.529412 0.949020 0.541176
0.521569 0.949020 0.529412
0.541176 0.945098 0.533333
0.560784 0.949020 0.533333
0.576471 0.941176 0.521569
0.619608 0.945098 0.521569
0.635294 0.941176 0.509804
0.674510 0.945098 0.517647
0.709804 0.941176 0.509804
0.733333 0.945098 0.498039
0.764706 0.937255 0.501961
0.800000 0.937255 0.482353
0.835294 0.937255 0.454902
0.870588 0.937255 0.435294
0.905882 0.937255 0.407843
0.945098 0.933333 0.372549
0.980392 0.937255 0.341176
1.000000 0.933333 0.282353
1.000000 0.941176 0.207843
0.988235 0.933333 0.066667
0.996078 0.929412 0.003922
1.000000 0.921569 0.000000
0.658824 0.992157 0.674510
0.666667 0.988235 0.690196
0.658824 0.988235 0.686275
0.658824 0.988235 0.682353
0.666667 0.988235 0.690196
0.690196 0.988235 0.694118
0.713725 0.980392 0.678431
0.737255 0.976471 0.662745
0.756863 0.980392 0.670588
0.792157 0.976471 0.662745
0.823529 0.976471 0.658824
0.839216 0.972549 0.643137
0.866667 0.968627 0.619608
0.905882 0.968627 0.619608
0.929412 0.964706 0.600000
0.956863 0.956863 0.580392
0.996078 0.960784 0.564706
1.000000 0.945098 0.533333
1.000000 0.941176 0.505882
1.000000 0.933333 0.478431
0.996078 0.933333 0.454902
0.996078 0.917647 0.427451
1.000000 0.901961 0.407843
1.000000 0.890196 0.403922
0.996078 0.929412 0.474510
0.905882 0.964706 0.600000
0.721569 0.996078 0.709804
0.721569 1.000000 0.705882
0.721569 1.000000 0.694118
0.729412 1.000000 0.709804
0.733333 1.000000 0.705882
0.741176 1.000000 0.701961
0.752941 1.000000 0.705882
0.784314 0.996078 0.698039
0.807843 1.000000 0.682353
0.831373 1.000000 0.690196
0.862745 0.992157 0.682353
0.882353 0.992157 0.662745
0.901961 0.988235 0.662745
0.929412 0.984314 0.643137
0.960784 0.980392 0.627451
0.980392 0.980392 0.603922
0.996078 0.972549 0.588235
1.000000 0.956863 0.556863
1.000000 0.949020 0.529412
0.996078 0.941176 0.513725
0.988235 0.941176 0.478431
1.000000 0.933333 0.447059
0.996078 0.905882 0.450980
0.996078 0.952941 0.541176
0.921569 0.992157 0.662745
0.752941 0.996078 0.733333
0.768627 1.000000 0.733333
0.756863 1.000000 0.729412
0.768627 1.000000 0.729412
0.772549 0.996078 0.725490
0.776471 1.000000 0.721569
0.796078 1.000000 0.717647
0.803922 1.000000 0.729412
0.823529 1.000000 0.721569
0.850980 0.996078 0.721569
0.862745 0.996078 0.698039
0.870588 0.996078 0.698039
0.894118 1.000000 0.690196
0.905882 0.988235 0.686275
0.933333 0.988235 0.654902
0.956863 0.976471 0.647059
0.972549 0.964706 0.623529
1.000000 0.960784 0.611765
1.000000 0.960784 0.607843
1.000000 0.952941 0.584314
1.000000 0.941176 0.545098
0.992157 0.937255 0.509804
1.000000 0.929412 0.490196
0.996078 0.949020 0.564706
0.913725 0.988235 0.670588
0.760784 1.000000 0.741176
0.772549 1.000000 0.752941
0.776471 0.996078 0.741176
0.780392 1.000000 0.737255
0.784314 0.996078 0.752941
0.796078 1.000000 0.741176
0.788235 1.000000 0.737255
0.800000 1.000000 0.737255
0.811765 1.000000 0.737255
0.823529 1.000000 0.721569
0.843137 1.000000 0.721569
0.862745 1.000000 0.721569
0.878431 0.996078 0.713725
0.905882 0.992157 0.705882
0.917647 0.980392 0.694118
0.933333 0.980392 0.690196
0.960784 0.976471 0.674510
0.976471 0.968627 0.666667
0.992157 0.972549 0.654902
1.000000 0.964706 0.631373
0.996078 0.968627 0.623529
1.000000 0.949020 0.603922
1.000000 0.925490 0.552941
0.996078 0.972549 0.682353
0.901961 0.996078 0.705882
0.784314 1.000000 0.784314
0.788235 0.996078 0.776471
0.792157 1.000000 0.776471
0.807843 1.000000 0.780392
0.800000 1.000000 0.776471
0.803922 1.000000 0.780392
0.811765 0.996078 0.780392
0.823529 1.000000 0.776471
0.827451 1.000000 0.768627
0.850980 1.000000 0.776471
0.858824 0.996078 0.768627
0.862745 0.992157 0.768627
0.886275 0.996078 0.768627
0.901961 0.996078 0.768627
0.913725 0.992157 0.752941
0.925490 0.988235 0.745098
0.945098 0.984314 0.745098
0.960784 0.984314 0.733333
0.980392 0.980392 0.737255
1.000000 0.980392 0.729412
1.000000 0.976471 0.721569
0.996078 0.976471 0.717647
0.992157 0.964706 0.690196
1.000000 0.956863 0.674510
0.000000 0.035294 0.003922
0.000000 0.035294 0.000000
0.000000 0.054902 0.000000
0.000000 0.066667 0.003922
0.000000 0.086275 0.000000
0.003922 0.090196 0.000000
0.043137 0.117647 0.007843
0.113725 0.133333 0.007843
0.188235 0.160784 0.000000
0.258824 0.176471 0.000000
0.325490 0.176471 0.000000
0.380392 0.164706 0.011765
0.415686 0.149020 0.003922
0.443137 0.129412 0.000000
0.474510 0.117647 0.003922
0.490196 0.101961 0.000000
0.494118 0.094118 0.000000
0.529412 0.078431 0.003922
0.564706 0.074510 0.000000
0.615686 0.082353 0.000000
0.666667 0.082353 0.000000
0.690196 0.047059 0.000000
0.737255 0.000000 0.000000
0.776471 0.000000 0.015686
0.811765 0.407843 0.000000
0.050980 0.058824 0.003922
0.000000 0.125490 0.000000
0.000000 0.101961 0.000000
0.000000 0.117647 0.003922
0.000000 0.133333 0.000000
0.003922 0.164706 0.000000
0.000000 0.180392 0.000000
0.062745 0.196078 0.000000
0.152941 0.203922 0.000000
0.227451 0.215686 0.000000
0.286275 0.219608 0.000000
0.337255 0.207843 0.000000
0.380392 0.192157 0.000000
0.407843 0.180392 0.000000
0.435294 0.164706 0.000000
0.458824 0.156863 0.000000
0.482353 0.133333 0.000000
0.517647 0.129412 0.003922
0.560784 0.125490 0.007843
0.607843 0.117647 0.000000
0.650980 0.121569 0.000000
0.694118 0.113725 0.003922
0.725490 0.098039 0.011765
0.764706 0.105882 0.003922
0.792157 0.450980 0.000000
0.000000 0.137255 0.007843
0.007843 0.168627 0.003922
0.000000 0.176471 0.003922
0.003922 0.196078 0.000000
0.000000 0.207843 0.000000
0.000000 0.223529 0.007843
0.000000 0.239216 0.003922
0.003922 0.247059 0.000000
0.098039 0.258824 0.000000
0.200000 0.247059 0.003922
0.258824 0.243137 0.000000
0.305882 0.243137 0.007843
0.349020 0.231373 0.000000
0.372549 0.219608 0.000000
0.411765 0.203922 0.000000
0.431373 0.188235 0.000000
0.470588 0.180392 0.003922
0.509804 0.180392 0.000000
0.552941 0.176471 0.011765
0.588235 0.184314 0.015686
0.631373 0.192157 0.000000
0.674510 0.176471 0.000000
0.713725 0.156863 0.007843
0.752941 0.137255 0.000000
0.800000 0.505882 0.003922
0.082353 0.192157 0.000000
0.000000 0.270588 0.007843
0.000000 0.254902 0.003922
0.000000 0.266667 0.000000
0.000000 0.274510 0.000000
0.000000 0.286275 0.000000
0.000000 0.290196 0.000000
0.000000 0.286275 0.007843
0.011765 0.286275 0.003922
0.117647 0.282353 0.000000
0.207843 0.274510 0.000000
0.254902 0.266667 0.003922
0.298039 0.258824 0.000000
0.356863 0.258824 0.000000
0.411765 0.254902 0.011765
0.458824 0.247059 0.003922
0.482353 0.239216 0.000000
0.513725 0.239216 0.000000
0.545098 0.231373 0.000000
0.596078 0.223529 0.003922
0.643137 0.223529 0.003922
0.670588 0.223529 0.000000
0.709804 0.211765 0.011765
0.741176 0.203922 0.000000
0.776471 0.525490 0.000000
0.000000 0.274510 0.000000
0.000000 0.309804 0.000000
0.003922 0.305882 0.000000
0.000000 0.305882 0.003922
0.000000 0.313725 0.011765
0.003922 0.313725 0.003922
0.000000 0.317647 0.000000
0.000000 0.317647 0.000000
0.000000 0.309804 0.000000
0.043137 0.305882 0.003922
0.145098 0.294118 0.000000
0.227451 0.290196 0.000000
0.290196 0.305882 0.003922
0.352941 0.321569 0.000000
0.419608 0.333333 0.000000
0.474510 0.333333 0.003922
0.513725 0.313725 0.000000
0.549020 0.305882 0.003922
0.576471 0.298039 0.000000
0.596078 0.286275 0.000000
0.643137 0.270588 0.003922
0.674510 0.270588 0.000000
0.713725 0.270588 0.000000
0.745098 0.262745 0.000000
0.776471 0.270588 0.011765
0.000000 0.227451 0.007843
0.000000 0.235294 0.011765
0.000000 0.231373 0.011765
0.003922 0.231373 0.000000
0.003922 0.231373 0.000000
0.149020 0.227451 0.000000
0.262745 0.219608 0.007843
0.313725 0.188235 0.000000
0.364706 0.164706 0.000000
0.407843 0.141176 0.003922
0.447059 0.117647 0.007843
0.466667 0.098039 0.000000
0.501961 0.066667 0.000000
0.537255 0.039216 0.003922
0.572549 0.007843 0.003922
0.627451 0.000000 0.000000
0.674510 0.000000 0.000000
0.705882 0.000000 0.000000
0.741176 0.003922 0.000000
0.768627 0.000000 0.003922
0.803922 0.000000 0.003922
0.843137 0.000000 0.000000
0.882353 0.000000 0.000000
0.898039 0.000000 0.003922
1.000000 0.070588 0.007843
0.333333 0.184314 0.000000
0.000000 0.270588 0.047059
0.000000 0.274510 0.000000
0.007843 0.266667 0.015686
0.000000 0.270588 0.000000
0.101961 0.270588 0.000000
0.184314 0.266667 0.000000
0.278431 0.258824 0.000000
0.352941 0.239216 0.003922
0.392157 0.207843 0.000000
0.419608 0.192157 0.000000
0.458824 0.172549 0.003922
0.501961 0.156863 0.000000
0.549020 0.149020 0.000000
0.580392 0.129412 0.007843
0.627451 0.121569 0.000000
0.658824 0.105882 0.000000
0.709804 0.098039 0.007843
0.741176 0.078431 0.003922
0.784314 0.066667 0.003922
0.819608 0.043137 0.000000
0.839216 0.003922 0.000000
0.882353 0.000000 0.003922
0.898039 0.000000 0.000000
0.945098 0.286275 0.000000
0.227451 0.262745 0.000000
0.000000 0.301961 0.000000
0.000000 0.305882 0.007843
0.000000 0.309804 0.000000
0.000000 0.313725 0.000000
0.047059 0.317647 0.000000
0.180392 0.329412 0.000000
0.274510 0.337255 0.000000
0.396078 0.352941 0.000000
0.450980 0.321569 0.003922
0.482353 0.290196 0.000000
0.498039 0.266667 0.000000
0.517647 0.243137 0.000000
0.549020 0.223529 0.011765
0.588235 0.215686 0.003922
0.623529 0.203922 0.000000
0.666667 0.188235 0.003922
0.701961 0.184314 0.000000
0.737255 0.180392 0.000000
0.768627 0.192157 0.000000
0.815686 0.188235 0.000000
0.831373 0.156863 0.000000
0.866667 0.086275 0.011765
0.925490 0.000000 0.000000
0.980392 0.286275 0.121569
0.352941 0.282353 0.000000
0.007843 0.341176 0.086275
0.000000 0.380392 0.007843
0.000000 0.388235 0.000000
0.003922 0.396078 0.011765
0.000000 0.407843 0.000000
0.152941 0.415686 0.003922
0.258824 0.423529 0.000000
0.360784 0.423529 0.000000
0.466667 0.439216 0.000000
0.533333 0.411765 0.000000
0.552941 0.360784 0.000000
0.568627 0.333333 0.000000
0.572549 0.313725 0.007843
0.596078 0.290196 0.000000
0.635294 0.278431 0.000000
0.670588 0.274510 0.000000
0.709804 0.258824 0.003922
0.741176 0.250980 0.000000
0.780392 0.247059 0.003922
0.803922 0.239216 0.003922
0.835294 0.227451 0.003922
0.870588 0.223529 0.000000
0.925490 0.058824 0.000000
0.921569 0.415686 0.192157
0.298039 0.384314 0.000000
0.000000 0.447059 0.090196
0.003922 0.458824 0.031373
0.000000 0.470588 0.019608
0.007843 0.470588 0.023529
0.011765 0.478431 0.015686
0.168627 0.478431 0.011765
0.254902 0.486275 0.000000
0.372549 0.482353 0.000000
0.458824 0.482353 0.000000
0.529412 0.498039 0.000000
0.592157 0.474510 0.003922
0.603922 0.439216 0.000000
0.619608 0.407843 0.000000
0.635294 0.376471 0.000000
0.647059 0.352941 0.000000
0.666667 0.337255 0.000000
0.690196 0.329412 0.003922
0.733333 0.321569 0.000000
0.776471 0.317647 0.007843
0.796078 0.301961 0.000000
0.831373 0.309804 0.007843
0.874510 0.301961 0.000000
0.901961 0.301961 0.000000
0.945098 0.313725 0.000000
0.003922 0.619608 0.105882
0.000000 0.623529 0.117647
0.000000 0.623529 0.121569
0.000000 0.619608 0.125490
0.000000 0.619608 0.117647
0.007843 0.619608 0.086275
0.211765 0.611765 0.047059
0.329412 0.619608 0.003922
0.411765 0.611765 0.000000
