presets/1.cube
#Generated by lutCreator.js
#Coded by SirSerch
#https://github.com/SirSerch/LutCreatorJs
TITLE lutCreatorJs_25
LUT_3D_SIZE 5
0.007843 0.000000 0.003922
0.192157 0.003922 0.000000
0.603922 0.000000 0.000000
0.874510 0.000000 0.003922
0.996078 0.000000 0.000000
0.317647 0.184314 0.003922
0.223529 0.313725 0.000000
0.568627 0.152941 0.000000
0.827451 0.074510 0.000000
0.992157 0.360784 0.003922
0.400000 0.615686 0.003922
0.266667 0.701961 0.192157
0.674510 0.682353 0.007843
0.847059 0.529412 0.000000
1.000000 0.584314 0.003922
0.666667 0.866667 0.258824
0.513725 0.909804 0.501961
0.713725 0.901961 0.474510
0.945098 0.890196 0.298039
1.000000 0.964706 0.317647
0.901961 0.996078 0.705882
0.803922 1.000000 0.780392
0.862745 0.992157 0.768627
0.960784 0.984314 0.733333
1.000000 0.956863 0.674510
0.007843 0.039216 0.047059
0.156863 0.090196 0.152941
0.490196 0.031373 0.101961
0.615686 0.000000 0.074510
0.827451 0.443137 0.094118
0.372549 0.176471 0.078431
0.207843 0.258824 0.231373
0.545098 0.235294 0.215686
0.776471 0.203922 0.207843
0.968627 0.364706 0.317647
0.454902 0.643137 0.211765
0.329412 0.686275 0.411765
0.674510 0.670588 0.309804
0.819608 0.545098 0.262745
0.988235 0.596078 0.352941
0.682353 0.862745 0.435294
0.541176 0.909804 0.572549
0.717647 0.890196 0.549020
0.933333 0.890196 0.435294
1.000000 0.952941 0.474510
0.909804 0.988235 0.749020
0.811765 0.996078 0.815686
0.874510 1.000000 0.807843
0.952941 0.980392 0.776471
0.992157 0.952941 0.713725
0.098039 0.188235 0.352941
0.168627 0.192157 0.396078
0.466667 0.000000 0.427451
0.631373 0.054902 0.368627
0.843137 0.501961 0.537255
0.431373 0.035294 0.411765
0.270588 0.290196 0.415686
0.509804 0.160784 0.482353
0.772549 0.227451 0.490196
0.956863 0.392157 0.600000
0.490196 0.588235 0.505882
0.450980 0.592157 0.584314
0.611765 0.588235 0.588235
0.792157 0.564706 0.560784
1.000000 0.607843 0.639216
0.678431 0.850980 0.643137
0.580392 0.898039 0.737255
0.698039 0.890196 0.705882
0.913725 0.882353 0.639216
1.000000 0.945098 0.650980
0.917647 0.976471 0.854902
0.827451 0.996078 0.890196
0.886275 0.984314 0.898039
0.952941 0.972549 0.882353
1.000000 0.956863 0.831373
0.235294 0.247059 0.415686
0.270588 0.262745 0.447059
0.364706 0.200000 0.482353
0.623529 0.000000 0.572549
0.807843 0.360784 0.737255
0.368627 0.188235 0.470588
0.435294 0.419608 0.619608
0.517647 0.345098 0.647059
0.752941 0.192157 0.686275
0.925490 0.294118 0.803922
0.521569 0.549020 0.619608
0.560784 0.576471 0.623529
0.596078 0.576471 0.694118
0.803922 0.505882 0.756863
1.000000 0.552941 0.827451
0.690196 0.745098 0.756863
0.623529 0.780392 0.780392
0.694118 0.796078 0.800000
0.811765 0.788235 0.788235
0.968627 0.839216 0.819608
0.937255 0.956863 0.972549
0.847059 0.984314 0.960784
0.909804 0.972549 0.968627
0.949020 0.968627 0.952941
1.000000 0.952941 0.941176
0.576471 0.537255 0.772549
0.588235 0.541176 0.784314
0.639216 0.494118 0.807843
0.800000 0.345098 0.835294
0.866667 0.498039 0.929412
0.662745 0.494118 0.843137
0.674510 0.607843 0.874510
0.721569 0.556863 0.886275
0.866667 0.415686 0.929412
0.937255 0.407843 0.952941
0.654902 0.639216 0.839216
0.678431 0.686275 0.874510
0.713725 0.650980 0.894118
0.847059 0.576471 0.941176
0.980392 0.505882 0.960784
0.772549 0.780392 0.862745
0.749020 0.815686 0.886275
0.792157 0.803922 0.878431
0.800000 0.749020 0.929412
0.913725 0.764706 0.988235
0.862745 0.984314 0.996078
0.831373 0.980392 0.992157
0.878431 0.980392 0.984314
0.941176 0.980392 0.984314
0.996078 0.976471 0.992157
