presets/2.cube
#Generated by lutCreator.js
#Coded by SirSerch
#https://github.com/SirSerch/LutCreatorJs
TITLE lutCreatorJs_25
LUT_3D_SIZE 5
0.003922 0.003922 0.000000
0.227451 0.000000 0.000000
0.682353 0.003922 0.000000
0.925490 0.000000 0.000000
0.996078 0.000000 0.000000
0.309804 0.129412 0.000000
0.184314 0.196078 0.000000
0.725490 0.172549 0.003922
0.925490 0.000000 0.007843
1.000000 0.360784 0.003922
0.388235 0.427451 0.329412
0.564706 0.588235 0.549020
0.517647 0.462745 0.117647
0.898039 0.498039 0.000000
1.000000 0.654902 0.003922
0.698039 0.709804 0.635294
0.741176 0.827451 0.737255
0.803922 0.792157 0.764706
0.760784 0.690196 0.360784
0.843137 0.717647 0.329412
0.972549 0.956863 0.913725
0.941176 0.972549 0.921569
0.964706 0.960784 0.952941
0.976471 0.956863 0.800000
0.996078 0.921569 0.611765
0.000000 0.039216 0.047059
0.156863 0.043137 0.113725
0.505882 0.000000 0.043137
0.698039 0.000000 0.007843
0.925490 0.439216 0.000000
0.396078 0.133333 0.027451
0.227451 0.227451 0.219608
0.623529 0.192157 0.196078
0.862745 0.039216 0.137255
1.000000 0.317647 0.243137
0.415686 0.450980 0.368627
0.501961 0.600000 0.486275
0.525490 0.486275 0.254902
0.925490 0.545098 0.133333
1.000000 0.639216 0.207843
0.717647 0.717647 0.678431
0.713725 0.827451 0.709804
0.819608 0.780392 0.776471
0.749020 0.678431 0.380392
0.800000 0.674510 0.333333
0.972549 0.956863 0.909804
0.925490 0.972549 0.917647
0.976471 0.952941 0.960784
0.976471 0.956863 0.831373
1.000000 0.929412 0.631373
0.003922 0.019608 0.501961
0.000000 0.000000 0.525490
0.517647 0.003922 0.419608
0.639216 0.000000 0.309804
0.941176 0.450980 0.521569
0.498039 0.003922 0.427451
0.113725 0.074510 0.588235
0.533333 0.000000 0.435294
0.796078 0.003922 0.443137
1.000000 0.156863 0.560784
0.525490 0.556863 0.513725
0.000000 0.658824 0.631373
0.670588 0.615686 0.611765
0.929412 0.584314 0.576471
1.000000 0.600000 0.615686
0.792157 0.780392 0.760784
0.505882 0.862745 0.690196
0.792157 0.835294 0.772549
0.764706 0.698039 0.525490
0.800000 0.643137 0.403922
0.968627 0.952941 0.949020
0.835294 0.992157 0.886275
0.956863 0.964706 0.945098
0.972549 0.956863 0.909804
0.996078 0.925490 0.737255
0.003922 0.000000 0.741176
0.003922 0.000000 0.745098
0.431373 0.003922 0.611765
0.600000 0.000000 0.482353
0.709804 0.000000 0.560784
0.427451 0.000000 0.600000
0.117647 0.000000 0.749020
0.431373 0.003922 0.596078
0.737255 0.000000 0.611765
0.886275 0.000000 0.682353
0.345098 0.400000 0.639216
0.352941 0.623529 0.854902
0.458824 0.305882 0.662745
0.752941 0.000000 0.639216
1.000000 0.321569 0.803922
0.470588 0.792157 0.784314
0.000000 0.843137 0.823529
0.431373 0.854902 0.862745
0.878431 0.815686 0.819608
1.000000 0.874510 0.854902
0.898039 0.976471 0.980392
0.494118 0.996078 1.000000
0.678431 1.000000 0.952941
0.976471 0.972549 0.964706
1.000000 0.960784 0.956863
0.243137 0.000000 0.866667
0.333333 0.000000 0.823529
0.509804 0.000000 0.721569
0.823529 0.000000 0.835294
0.866667 0.000000 0.858824
0.568627 0.007843 0.815686
0.384314 0.000000 0.819608
0.643137 0.000000 0.874510
0.949020 0.000000 0.956863
1.000000 0.003922 1.000000
0.290196 0.035294 0.733333
0.203922 0.313725 0.847059
0.447059 0.000000 0.721569
0.800000 0.000000 0.839216
1.000000 0.003922 0.937255
0.658824 0.866667 0.992157
0.352941 0.882353 0.996078
0.635294 0.870588 1.000000
0.694118 0.490196 0.925490
0.886275 0.400000 0.909804
0.388235 1.000000 0.996078
0.000000 1.000000 0.996078
0.470588 1.000000 0.996078
0.858824 0.988235 1.000000
1.000000 0.980392 0.996078
