presets/2.cube
#Generated by lutCreator.js
#Coded by SirSerch
#https://github.com/SirSerch/LutCreatorJs
TITLE lutCreatorJs_25
LUT_3D_SIZE 9
0.003922 0.003922 0.000000
0.035294 0.003922 0.000000
0.227451 0.000000 0.000000
0.470588 0.000000 0.007843
0.682353 0.003922 0.000000
0.839216 0.000000 0.000000
0.925490 0.000000 0.000000
0.996078 0.000000 0.000000
0.996078 0.000000 0.000000
0.243137 0.015686 0.007843
0.039216 0.050980 0.023529
0.176471 0.074510 0.007843
0.419608 0.035294 0.000000
0.584314 0.000000 0.000000
0.745098 0.000000 0.000000
0.898039 0.000000 0.003922
1.000000 0.003922 0.003922
0.996078 0.000000 0.000000
0.309804 0.129412 0.000000
0.160784 0.164706 0.145098
0.184314 0.196078 0.000000
0.443137 0.176471 0.000000
0.725490 0.172549 0.003922
0.831373 0.047059 0.000000
0.925490 0.000000 0.007843
1.000000 0.003922 0.011765
1.000000 0.360784 0.003922
0.223529 0.247059 0.058824
0.317647 0.388235 0.301961
0.333333 0.356863 0.309804
0.352941 0.333333 0.003922
0.545098 0.298039 0.000000
0.858824 0.396078 0.003922
0.949020 0.360784 0.000000
1.000000 0.333333 0.000000
1.000000 0.333333 0.000000
0.388235 0.427451 0.329412
0.498039 0.611765 0.494118
0.564706 0.588235 0.549020
0.517647 0.533333 0.427451
0.517647 0.462745 0.117647
0.607843 0.376471 0.007843
0.898039 0.498039 0.000000
0.996078 0.552941 0.000000
1.000000 0.654902 0.003922
0.611765 0.752941 0.603922
0.603922 0.764706 0.607843
0.682353 0.749020 0.674510
0.725490 0.709804 0.705882
0.674510 0.694118 0.568627
0.686275 0.623529 0.282353
0.686275 0.474510 0.000000
0.921569 0.568627 0.000000
1.000000 0.666667 0.003922
0.698039 0.709804 0.635294
0.725490 0.815686 0.701961
0.741176 0.827451 0.737255
0.800000 0.803922 0.772549
0.803922 0.792157 0.764706
0.764706 0.772549 0.627451
0.760784 0.690196 0.360784
0.729412 0.517647 0.000000
0.843137 0.717647 0.329412
0.894118 0.878431 0.772549
0.886275 0.945098 0.862745
0.901961 0.945098 0.878431
0.956863 0.917647 0.913725
0.925490 0.925490 0.878431
0.933333 0.898039 0.745098
0.984314 0.835294 0.517647
1.000000 0.819608 0.341176
0.984314 0.835294 0.415686
0.972549 0.956863 0.913725
0.925490 0.964706 0.929412
0.941176 0.972549 0.921569
0.960784 0.960784 0.929412
0.964706 0.960784 0.952941
0.972549 0.956863 0.913725
0.976471 0.956863 0.800000
1.000000 0.945098 0.674510
0.996078 0.921569 0.611765
0.000000 0.019608 0.003922
0.003922 0.043137 0.011765
0.054902 0.054902 0.023529
0.258824 0.121569 0.003922
0.435294 0.125490 0.003922
0.509804 0.082353 0.000000
0.694118 0.058824 0.000000
0.807843 0.019608 0.000000
0.925490 0.423529 0.000000
0.082353 0.078431 0.007843
0.011765 0.149020 0.054902
0.129412 0.160784 0.117647
0.152941 0.196078 0.027451
0.298039 0.176471 0.000000
0.423529 0.184314 0.000000
0.600000 0.223529 0.000000
0.752941 0.231373 0.000000
0.643137 0.345098 0.000000
0.368627 0.129412 0.007843
0.168627 0.196078 0.168627
0.200000 0.215686 0.078431
0.415686 0.176471 0.000000
0.631373 0.164706 0.000000
0.737255 0.086275 0.000000
0.843137 0.000000 0.015686
0.941176 0.000000 0.003922
0.988235 0.294118 0.000000
0.243137 0.254902 0.078431
0.231373 0.313725 0.239216
0.298039 0.298039 0.290196
0.325490 0.305882 0.078431
0.494118 0.282353 0.000000
0.788235 0.388235 0.003922
0.866667 0.341176 0.007843
0.937255 0.298039 0.003922
1.000000 0.298039 0.007843
0.392157 0.431373 0.337255
0.478431 0.592157 0.474510
0.545098 0.576471 0.525490
0.513725 0.533333 0.454902
0.517647 0.482353 0.172549
0.600000 0.388235 0.011765
0.878431 0.505882 0.003922
1.000000 0.560784 0.007843
0.992157 0.650980 0.000000
0.592157 0.749020 0.603922
0.603922 0.749020 0.615686
0.666667 0.737255 0.643137
0.741176 0.698039 0.713725
0.678431 0.694118 0.556863
0.701961 0.635294 0.290196
0.698039 0.466667 0.003922
0.901961 0.560784 0.003922
0.901961 0.607843 0.003922
0.713725 0.705882 0.647059
0.713725 0.807843 0.705882
0.752941 0.811765 0.721569
0.788235 0.796078 0.752941
0.788235 0.776471 0.741176
0.760784 0.768627 0.623529
0.772549 0.701961 0.364706
0.729412 0.521569 0.003922
0.835294 0.717647 0.333333
0.890196 0.870588 0.756863
0.894118 0.937255 0.870588
0.925490 0.929412 0.898039
0.956863 0.913725 0.929412
0.921569 0.901961 0.823529
0.941176 0.858824 0.635294
0.992157 0.792157 0.435294
0.996078 0.858824 0.466667
0.996078 0.854902 0.486275
0.956863 0.956863 0.917647
0.937255 0.968627 0.925490
0.952941 0.964706 0.937255
0.972549 0.949020 0.949020
0.968627 0.952941 0.941176
0.964706 0.956863 0.874510
0.996078 0.956863 0.756863
1.000000 0.929412 0.639216
1.000000 0.917647 0.662745
0.000000 0.039216 0.047059
0.000000 0.058824 0.074510
0.156863 0.043137 0.113725
0.403922 0.003922 0.090196
0.505882 0.000000 0.043137
0.560784 0.000000 0.031373
0.698039 0.000000 0.007843
0.788235 0.007843 0.000000
0.925490 0.439216 0.000000
0.117647 0.094118 0.000000
0.003922 0.207843 0.058824
0.129412 0.192157 0.141176
0.258824 0.192157 0.011765
0.415686 0.176471 0.000000
0.501961 0.149020 0.011765
0.647059 0.125490 0.003922
0.768627 0.082353 0.007843
0.686275 0.400000 0.000000
0.396078 0.133333 0.027451
0.007843 0.254902 0.223529
0.227451 0.227451 0.219608
0.427451 0.211765 0.192157
0.623529 0.192157 0.196078
0.741176 0.141176 0.160784
0.862745 0.039216 0.137255
0.949020 0.000000 0.054902
1.000000 0.317647 0.243137
0.239216 0.270588 0.125490
0.113725 0.396078 0.247059
0.329412 0.384314 0.317647
0.372549 0.356863 0.211765
0.584314 0.364706 0.172549
0.756863 0.388235 0.184314
0.858824 0.352941 0.137255
0.956863 0.321569 0.070588
1.000000 0.305882 0.000000
0.415686 0.450980 0.368627
0.415686 0.603922 0.454902
0.501961 0.600000 0.486275
0.541176 0.549020 0.505882
0.525490 0.486275 0.254902
0.647059 0.431373 0.066667
0.925490 0.545098 0.133333
1.000000 0.552941 0.007843
1.000000 0.639216 0.207843
0.537255 0.764706 0.576471
0.541176 0.768627 0.580392
0.631373 0.745098 0.623529
0.713725 0.713725 0.682353
0.670588 0.686275 0.588235
0.678431 0.607843 0.349020
0.729412 0.509804 0.027451
0.949020 0.607843 0.000000
1.000000 0.686275 0.156863
0.717647 0.717647 0.678431
0.701961 0.815686 0.694118
0.713725 0.827451 0.709804
0.780392 0.807843 0.745098
0.819608 0.780392 0.776471
0.760784 0.764706 0.643137
0.749020 0.678431 0.380392
0.749020 0.541176 0.000000
0.800000 0.674510 0.333333
0.898039 0.866667 0.776471
0.858824 0.952941 0.850980
0.882353 0.952941 0.866667
0.929412 0.929412 0.898039
0.952941 0.921569 0.909804
0.929412 0.905882 0.772549
0.964706 0.831373 0.552941
1.000000 0.835294 0.435294
0.988235 0.831373 0.486275
0.972549 0.956863 0.909804
0.905882 0.972549 0.898039
0.925490 0.972549 0.917647
0.945098 0.964706 0.937255
0.976471 0.952941 0.960784
0.964706 0.964706 0.933333
0.976471 0.956863 0.831373
1.000000 0.945098 0.698039
1.000000 0.929412 0.631373
0.000000 0.098039 0.164706
0.000000 0.117647 0.211765
0.007843 0.149020 0.250980
0.368627 0.035294 0.250980
0.454902 0.082353 0.168627
0.533333 0.070588 0.156863
0.709804 0.058824 0.152941
0.803922 0.003922 0.109804
0.952941 0.439216 0.258824
0.180392 0.141176 0.003922
0.000000 0.274510 0.101961
0.003922 0.282353 0.117647
0.223529 0.239216 0.235294
0.345098 0.219608 0.035294
0.470588 0.239216 0.074510
0.623529 0.227451 0.047059
0.772549 0.219608 0.000000
0.792157 0.466667 0.152941
0.478431 0.000000 0.286275
0.003922 0.211765 0.407843
0.168627 0.160784 0.454902
0.462745 0.007843 0.396078
0.556863 0.019608 0.301961
0.698039 0.090196 0.313725
0.835294 0.101961 0.317647
0.956863 0.035294 0.298039
0.992157 0.321569 0.454902
0.345098 0.290196 0.254902
0.003922 0.400000 0.368627
0.000000 0.411765 0.380392
0.411765 0.400000 0.380392
0.607843 0.423529 0.400000
0.749020 0.415686 0.396078
0.835294 0.368627 0.345098
0.937255 0.329412 0.309804
1.000000 0.294118 0.219608
0.513725 0.498039 0.494118
0.003922 0.647059 0.450980
0.305882 0.643137 0.490196
0.603922 0.615686 0.580392
0.568627 0.529412 0.392157
0.733333 0.525490 0.360784
0.933333 0.588235 0.400000
0.996078 0.564706 0.333333
1.000000 0.650980 0.415686
0.349020 0.800000 0.576471
0.356863 0.803922 0.572549
0.529412 0.784314 0.615686
0.701961 0.745098 0.678431
0.717647 0.705882 0.678431
0.717647 0.654902 0.462745
0.764706 0.545098 0.250980
0.956863 0.639216 0.282353
0.976471 0.678431 0.333333
0.768627 0.749020 0.737255
0.635294 0.850980 0.694118
0.682353 0.854902 0.713725
0.756863 0.827451 0.741176
0.835294 0.803922 0.796078
0.784314 0.780392 0.698039
0.768627 0.694118 0.462745
0.780392 0.568627 0.176471
0.811765 0.686275 0.400000
0.898039 0.874510 0.811765
0.749020 0.964706 0.843137
0.811765 0.952941 0.850980
0.929412 0.941176 0.905882
0.945098 0.925490 0.913725
0.949020 0.874510 0.749020
1.000000 0.835294 0.627451
1.000000 0.890196 0.654902
0.992157 0.901961 0.690196
0.956863 0.960784 0.941176
0.890196 0.980392 0.901961
0.913725 0.968627 0.909804
0.949020 0.968627 0.945098
0.976471 0.960784 0.956863
0.968627 0.952941 0.941176
0.992157 0.949020 0.823529
1.000000 0.921569 0.721569
1.000000 0.933333 0.764706
0.003922 0.019608 0.501961
0.000000 0.023529 0.509804
0.000000 0.000000 0.525490
0.333333 0.003922 0.482353
0.517647 0.003922 0.419608
0.568627 0.003922 0.345098
0.639216 0.000000 0.309804
0.776471 0.003922 0.317647
0.941176 0.450980 0.521569
0.274510 0.172549 0.184314
0.007843 0.215686 0.427451
0.000000 0.215686 0.427451
0.231373 0.117647 0.478431
0.490196 0.000000 0.384314
0.505882 0.054902 0.286275
0.639216 0.098039 0.301961
0.776471 0.094118 0.301961
0.788235 0.498039 0.494118
0.498039 0.003922 0.427451
0.003922 0.125490 0.584314
0.113725 0.074510 0.588235
0.384314 0.003922 0.525490
0.533333 0.000000 0.435294
0.631373 0.000000 0.403922
0.796078 0.003922 0.443137
0.925490 0.000000 0.431373
1.000000 0.156863 0.560784
0.317647 0.235294 0.309804
0.000000 0.352941 0.458824
0.176471 0.372549 0.478431
0.301961 0.274510 0.439216
0.525490 0.160784 0.435294
0.686275 0.301961 0.462745
0.803922 0.329412 0.466667
0.937255 0.305882 0.466667
0.996078 0.247059 0.407843
0.525490 0.556863 0.513725
0.000000 0.643137 0.615686
0.000000 0.658824 0.631373
0.427451 0.658824 0.643137
0.670588 0.615686 0.611765
0.796078 0.600000 0.596078
0.929412 0.584314 0.576471
1.000000 0.541176 0.513725
1.000000 0.600000 0.615686
0.003922 0.811765 0.631373
0.000000 0.811765 0.631373
0.000000 0.803922 0.623529
0.541176 0.780392 0.650980
0.752941 0.756863 0.733333
0.717647 0.678431 0.580392
0.870588 0.666667 0.509804
0.992157 0.701961 0.517647
1.000000 0.780392 0.572549
0.792157 0.780392 0.760784
0.462745 0.862745 0.674510
0.505882 0.862745 0.690196
0.670588 0.854902 0.713725
0.792157 0.835294 0.772549
0.823529 0.796078 0.772549
0.764706 0.698039 0.525490
0.843137 0.631373 0.341176
0.800000 0.643137 0.403922
0.901961 0.886275 0.843137
0.639216 0.984314 0.827451
0.670588 0.984314 0.831373
0.792157 0.972549 0.858824
0.941176 0.952941 0.925490
0.952941 0.937255 0.901961
0.968627 0.831373 0.674510
0.992157 0.886275 0.678431
1.000000 0.901961 0.701961
0.968627 0.952941 0.949020
0.807843 1.000000 0.882353
0.835294 0.992157 0.886275
0.894118 0.976471 0.917647
0.956863 0.964706 0.945098
0.972549 0.956863 0.952941
0.972549 0.956863 0.909804
0.996078 0.945098 0.772549
0.996078 0.925490 0.737255
0.000000 0.078431 0.568627
0.000000 0.094118 0.580392
0.000000 0.058824 0.596078
0.164706 0.000000 0.592157
0.431373 0.000000 0.521569
0.541176 0.000000 0.439216
0.588235 0.003922 0.372549
0.756863 0.007843 0.411765
0.917647 0.270588 0.572549
0.266667 0.003922 0.458824
0.000000 0.258824 0.462745
0.000000 0.266667 0.439216
0.003922 0.247059 0.431373
0.329412 0.113725 0.478431
0.486275 0.000000 0.368627
0.619608 0.133333 0.368627
0.768627 0.149020 0.380392
0.819608 0.450980 0.545098
0.419608 0.000000 0.533333
0.000000 0.007843 0.686275
0.047059 0.000000 0.666667
0.345098 0.000000 0.607843
0.458824 0.007843 0.521569
0.572549 0.003922 0.478431
0.721569 0.000000 0.498039
0.878431 0.000000 0.517647
0.925490 0.007843 0.631373
0.423529 0.000000 0.541176
0.000000 0.278431 0.490196
0.094118 0.250980 0.482353
0.258824 0.192157 0.505882
0.458824 0.000000 0.517647
0.537255 0.003922 0.439216
0.709804 0.058824 0.490196
0.866667 0.121569 0.513725
0.988235 0.003922 0.517647
0.447059 0.529412 0.603922
0.000000 0.607843 0.729412
0.200000 0.623529 0.733333
0.466667 0.619608 0.733333
0.560784 0.466667 0.662745
0.733333 0.388235 0.627451
0.917647 0.490196 0.654902
1.000000 0.458824 0.611765
0.996078 0.537255 0.709804
0.011765 0.792157 0.764706
0.000000 0.780392 0.768627
0.000000 0.792157 0.756863
0.286275 0.800000 0.776471
0.588235 0.796078 0.764706
0.784314 0.741176 0.717647
0.917647 0.717647 0.705882
1.000000 0.690196 0.662745
0.992157 0.788235 0.733333
0.725490 0.807843 0.733333
0.000000 0.886275 0.705882
0.000000 0.886275 0.709804
0.313725 0.878431 0.741176
0.643137 0.866667 0.729412
0.870588 0.850980 0.839216
0.807843 0.752941 0.650980
0.941176 0.721569 0.537255
0.847059 0.682353 0.525490
0.913725 0.874510 0.909804
0.552941 0.960784 0.956863
0.588235 0.952941 0.972549
0.678431 0.952941 0.960784
0.823529 0.933333 0.945098
0.964706 0.921569 0.937255
1.000000 0.898039 0.909804
1.000000 0.894118 0.878431
1.000000 0.913725 0.921569
0.941176 0.960784 0.937255
0.588235 0.996078 0.952941
0.631373 1.000000 0.937255
0.749020 1.000000 0.933333
0.894118 0.980392 0.929412
0.964706 0.964706 0.956863
0.980392 0.964706 0.921569
1.000000 0.941176 0.901961
1.000000 0.952941 0.921569
0.003922 0.000000 0.741176
0.003922 0.000000 0.760784
0.003922 0.000000 0.745098
0.270588 0.000000 0.701961
0.431373 0.003922 0.611765
0.501961 0.000000 0.533333
0.600000 0.000000 0.482353
0.698039 0.000000 0.505882
0.709804 0.000000 0.560784
0.160784 0.000000 0.647059
0.003922 0.090196 0.721569
0.000000 0.058824 0.737255
0.082353 0.000000 0.709804
0.376471 0.003922 0.615686
0.498039 0.000000 0.545098
0.568627 0.007843 0.470588
0.658824 0.000000 0.447059
0.552941 0.000000 0.474510
0.427451 0.000000 0.600000
0.000000 0.000000 0.768627
0.117647 0.000000 0.749020
0.321569 0.000000 0.678431
0.431373 0.003922 0.596078
0.533333 0.003922 0.549020
0.737255 0.000000 0.611765
0.835294 0.000000 0.596078
0.886275 0.000000 0.682353
0.337255 0.000000 0.623529
0.003922 0.227451 0.580392
0.054902 0.188235 0.607843
0.262745 0.121569 0.615686
0.415686 0.000000 0.588235
0.509804 0.000000 0.537255
0.662745 0.000000 0.560784
0.807843 0.000000 0.576471
0.980392 0.003922 0.654902
0.345098 0.400000 0.639216
0.325490 0.623529 0.850980
0.352941 0.623529 0.854902
0.364706 0.521569 0.803922
0.458824 0.305882 0.662745
0.509804 0.023529 0.541176
0.752941 0.000000 0.639216
0.949020 0.250980 0.690196
1.000000 0.321569 0.803922
0.000000 0.749020 0.862745
0.007843 0.752941 0.854902
0.035294 0.752941 0.874510
0.411765 0.760784 0.878431
0.623529 0.752941 0.882353
0.709804 0.631373 0.862745
0.925490 0.521569 0.807843
0.992157 0.588235 0.803922
1.000000 0.631373 0.866667
0.470588 0.792157 0.784314
0.003922 0.839216 0.823529
0.000000 0.843137 0.823529
0.000000 0.847059 0.827451
0.431373 0.854902 0.862745
0.674510 0.862745 0.862745
0.878431 0.815686 0.819608
1.000000 0.796078 0.772549
1.000000 0.874510 0.854902
0.894118 0.823529 0.980392
0.403922 0.968627 1.000000
0.454902 0.968627 1.000000
0.564706 0.960784 0.992157
0.729412 0.949020 1.000000
0.878431 0.929412 0.992157
1.000000 0.862745 0.980392
0.992157 0.886275 0.952941
1.000000 0.917647 0.996078
0.898039 0.976471 0.980392
0.458824 1.000000 1.000000
0.494118 0.996078 1.000000
0.568627 1.000000 0.980392
0.678431 1.000000 0.952941
0.850980 0.996078 0.929412
0.976471 0.972549 0.964706
1.000000 0.949020 0.913725
1.000000 0.960784 0.956863
0.000000 0.000000 0.854902
0.000000 0.000000 0.862745
0.000000 0.000000 0.854902
0.207843 0.000000 0.792157
0.392157 0.000000 0.690196
0.490196 0.000000 0.619608
0.560784 0.000000 0.556863
0.717647 0.000000 0.596078
0.745098 0.003922 0.650980
0.231373 0.003922 0.721569
0.003922 0.180392 0.749020
0.000000 0.160784 0.752941
0.000000 0.062745 0.780392
0.290196 0.000000 0.709804
0.450980 0.000000 0.647059
0.537255 0.000000 0.545098
0.627451 0.003922 0.509804
0.552941 0.003922 0.525490
0.423529 0.000000 0.682353
0.152941 0.000000 0.811765
0.243137 0.000000 0.784314
0.356863 0.000000 0.721569
0.466667 0.000000 0.698039
0.607843 0.000000 0.705882
0.760784 0.003922 0.737255
0.898039 0.000000 0.756863
0.850980 0.003922 0.784314
0.423529 0.000000 0.698039
0.000000 0.121569 0.772549
0.109804 0.082353 0.764706
0.309804 0.003922 0.717647
0.423529 0.003922 0.654902
0.517647 0.003922 0.623529
0.650980 0.000000 0.627451
0.819608 0.000000 0.701961
0.929412 0.000000 0.705882
0.286275 0.301961 0.690196
0.101961 0.525490 0.913725
0.125490 0.486275 0.890196
0.282353 0.368627 0.807843
0.403922 0.180392 0.686275
0.513725 0.000000 0.619608
0.623529 0.000000 0.607843
0.874510 0.000000 0.733333
0.937255 0.003922 0.776471
0.141176 0.788235 1.000000
0.164706 0.796078 1.000000
0.290196 0.800000 1.000000
0.490196 0.784314 1.000000
0.525490 0.694118 1.000000
0.678431 0.521569 0.968627
0.807843 0.113725 0.811765
1.000000 0.168627 0.882353
1.000000 0.313725 0.925490
0.505882 0.831373 0.956863
0.003922 0.866667 0.968627
0.000000 0.866667 0.968627
0.003922 0.866667 0.968627
0.458824 0.866667 0.980392
0.678431 0.858824 0.992157
0.839216 0.725490 0.984314
0.996078 0.615686 0.933333
0.929412 0.694118 0.945098
0.917647 0.639216 1.000000
0.717647 0.921569 1.000000
0.737255 0.925490 1.000000
0.792157 0.913725 0.996078
0.827451 0.866667 1.000000
0.937255 0.780392 0.988235
0.992157 0.541176 1.000000
1.000000 0.600000 1.000000
0.992157 0.654902 0.996078
0.945098 0.960784 1.000000
0.717647 1.000000 0.996078
0.733333 1.000000 0.992157
0.800000 0.996078 0.984314
0.882353 0.980392 1.000000
0.925490 0.960784 0.996078
0.992157 0.949020 1.000000
1.000000 0.921569 1.000000
1.000000 0.956863 0.992157
0.243137 0.000000 0.866667
0.266667 0.003922 0.862745
0.333333 0.000000 0.823529
0.435294 0.003922 0.768627
0.509804 0.000000 0.721569
0.666667 0.000000 0.780392
0.823529 0.000000 0.835294
0.945098 0.003922 0.878431
0.866667 0.000000 0.858824
0.384314 0.000000 0.788235
0.168627 0.003922 0.882353
0.250980 0.000000 0.858824
0.380392 0.000000 0.800000
0.474510 0.000000 0.725490
0.533333 0.000000 0.658824
0.654902 0.003922 0.678431
0.819608 0.000000 0.745098
0.678431 0.000000 0.721569
0.568627 0.007843 0.815686
0.337255 0.000000 0.827451
0.384314 0.000000 0.819608
0.486275 0.000000 0.823529
0.643137 0.000000 0.874510
0.800000 0.007843 0.933333
0.949020 0.000000 0.956863
0.992157 0.000000 0.952941
1.000000 0.003922 1.000000
0.407843 0.003922 0.768627
0.215686 0.000000 0.847059
0.290196 0.000000 0.819608
0.396078 0.000000 0.768627
0.517647 0.003922 0.756863
0.678431 0.003922 0.819608
0.839216 0.000000 0.862745
0.984314 0.000000 0.901961
1.000000 0.000000 0.925490
0.290196 0.035294 0.733333
0.121569 0.364706 0.886275
0.203922 0.313725 0.847059
0.266667 0.133333 0.705882
0.447059 0.000000 0.721569
0.600000 0.000000 0.792157
0.800000 0.000000 0.839216
0.964706 0.003922 0.894118
1.000000 0.003922 0.937255
0.470588 0.807843 1.000000
0.478431 0.803922 1.000000
0.458824 0.780392 1.000000
0.388235 0.670588 1.000000
0.419608 0.486275 0.941176
0.556863 0.266667 0.843137
0.745098 0.000000 0.823529
0.917647 0.003922 0.850980
0.921569 0.000000 0.866667
0.658824 0.866667 0.992157
0.305882 0.886275 1.000000
0.352941 0.882353 0.996078
0.474510 0.882353 0.996078
0.635294 0.870588 1.000000
0.627451 0.768627 1.000000
0.694118 0.490196 0.925490
0.827451 0.007843 0.815686
0.886275 0.400000 0.909804
0.701961 0.952941 0.992157
0.313725 0.949020 0.992157
0.372549 0.952941 1.000000
0.466667 0.952941 1.000000
0.619608 0.960784 1.000000
0.776471 0.960784 1.000000
0.913725 0.941176 1.000000
1.000000 0.721569 1.000000
0.992157 0.878431 0.996078
0.388235 1.000000 0.996078
0.000000 0.996078 0.996078
0.000000 1.000000 0.996078
0.231373 0.996078 1.000000
0.470588 1.000000 0.996078
0.666667 1.000000 1.000000
0.858824 0.988235 1.000000
0.968627 0.984314 0.996078
1.000000 0.980392 0.996078
