presets/2.cube
#Generated by lutCreator.js
#Coded by SirSerch
#https://github.com/SirSerch/LutCreatorJs
TITLE lutCreatorJs_25
LUT_3D_SIZE 25
0.003922 0.003922 0.000000
0.000000 0.007843 0.003922
0.007843 0.000000 0.011765
0.035294 0.003922 0.000000
0.066667 0.011765 0.007843
0.137255 0.023529 0.007843
0.227451 0.000000 0.000000
0.313725 0.000000 0.003922
0.400000 0.000000 0.000000
0.470588 0.000000 0.007843
0.541176 0.000000 0.007843
0.619608 0.000000 0.000000
0.682353 0.003922 0.000000
0.725490 0.000000 0.000000
0.803922 0.003922 0.007843
0.839216 0.000000 0.000000
0.870588 0.000000 0.007843
0.898039 0.000000 0.000000
0.925490 0.000000 0.000000
0.956863 0.000000 0.000000
0.984314 0.007843 0.000000
0.996078 0.000000 0.000000
1.000000 0.003922 0.011765
0.996078 0.000000 0.000000
0.996078 0.000000 0.000000
0.121569 0.000000 0.007843
0.000000 0.019608 0.003922
0.023529 0.007843 0.003922
0.035294 0.015686 0.003922
0.066667 0.031373 0.000000
0.137255 0.031373 0.003922
0.227451 0.019608 0.003922
0.301961 0.000000 0.000000
0.368627 0.000000 0.003922
0.443137 0.003922 0.000000
0.505882 0.000000 0.000000
0.572549 0.000000 0.000000
0.639216 0.000000 0.003922
0.705882 0.000000 0.003922
0.756863 0.000000 0.007843
0.819608 0.003922 0.000000
0.858824 0.000000 0.000000
0.894118 0.000000 0.003922
0.913725 0.003922 0.003922
0.949020 0.000000 0.000000
0.992157 0.000000 0.007843
0.996078 0.000000 0.007843
0.996078 0.000000 0.000000
1.000000 0.003922 0.000000
0.996078 0.000000 0.000000
0.086275 0.027451 0.007843
0.003922 0.023529 0.007843
0.023529 0.023529 0.015686
0.043137 0.031373 0.000000
0.066667 0.031373 0.000000
0.125490 0.050980 0.000000
0.219608 0.054902 0.000000
0.298039 0.027451 0.000000
0.364706 0.000000 0.000000
0.415686 0.000000 0.007843
0.470588 0.000000 0.000000
0.541176 0.000000 0.000000
0.603922 0.000000 0.000000
0.666667 0.000000 0.003922
0.725490 0.000000 0.000000
0.772549 0.007843 0.000000
0.819608 0.000000 0.000000
0.882353 0.003922 0.003922
0.913725 0.000000 0.007843
0.933333 0.000000 0.000000
0.964706 0.003922 0.000000
0.996078 0.000000 0.000000
1.000000 0.003922 0.003922
0.996078 0.000000 0.000000
1.000000 0.003922 0.000000
0.243137 0.015686 0.007843
0.039216 0.039216 0.031373
0.031373 0.035294 0.043137
0.039216 0.050980 0.023529
0.066667 0.050980 0.007843
0.086275 0.062745 0.000000
0.176471 0.074510 0.007843
0.266667 0.086275 0.000000
0.345098 0.078431 0.003922
0.419608 0.035294 0.000000
0.474510 0.003922 0.007843
0.529412 0.003922 0.007843
0.584314 0.000000 0.000000
0.647059 0.000000 0.000000
0.698039 0.000000 0.007843
0.745098 0.000000 0.000000
0.803922 0.000000 0.003922
0.862745 0.000000 0.000000
0.898039 0.000000 0.003922
0.921569 0.000000 0.003922
0.952941 0.000000 0.007843
1.000000 0.003922 0.003922
0.996078 0.000000 0.007843
0.996078 0.000000 0.000000
0.996078 0.000000 0.000000
0.125490 0.058824 0.000000
0.062745 0.070588 0.050980
0.062745 0.062745 0.062745
0.062745 0.082353 0.058824
0.074510 0.090196 0.023529
0.098039 0.105882 0.019608
0.156863 0.101961 0.000000
0.247059 0.105882 0.003922
0.321569 0.121569 0.007843
0.368627 0.121569 0.000000
0.450980 0.117647 0.000000
0.525490 0.086275 0.007843
0.592157 0.023529 0.003922
0.635294 0.000000 0.000000
0.686275 0.003922 0.000000
0.741176 0.000000 0.000000
0.780392 0.000000 0.000000
0.819608 0.000000 0.011765
0.854902 0.000000 0.003922
0.925490 0.000000 0.007843
0.949020 0.000000 0.000000
0.992157 0.003922 0.000000
0.996078 0.000000 0.011765
0.996078 0.000000 0.007843
0.992157 0.003922 0.000000
0.007843 0.145098 0.050980
0.027451 0.152941 0.062745
0.058824 0.152941 0.090196
0.117647 0.137255 0.109804
0.113725 0.141176 0.070588
0.137255 0.152941 0.007843
0.243137 0.129412 0.003922
0.305882 0.129412 0.000000
0.400000 0.141176 0.003922
0.498039 0.129412 0.000000
0.588235 0.101961 0.000000
0.647059 0.050980 0.000000
0.713725 0.000000 0.015686
0.752941 0.000000 0.007843
0.776471 0.000000 0.007843
0.835294 0.000000 0.007843
0.866667 0.000000 0.000000
0.898039 0.003922 0.000000
0.917647 0.000000 0.000000
0.956863 0.000000 0.000000
0.988235 0.000000 0.003922
1.000000 0.003922 0.003922
0.996078 0.000000 0.000000
0.996078 0.007843 0.003922
0.996078 0.168627 0.000000
0.309804 0.129412 0.000000
0.109804 0.184314 0.109804
0.129412 0.176471 0.121569
0.160784 0.164706 0.145098
0.145098 0.176471 0.125490
0.152941 0.196078 0.070588
0.184314 0.196078 0.000000
0.247059 0.160784 0.000000
0.337255 0.160784 0.000000
0.443137 0.176471 0.000000
0.568627 0.211765 0.003922
0.662745 0.192157 0.000000
0.725490 0.172549 0.003922
0.764706 0.141176 0.000000
0.803922 0.098039 0.000000
0.831373 0.047059 0.000000
0.882353 0.043137 0.011765
0.901961 0.000000 0.000000
0.925490 0.000000 0.007843
0.960784 0.000000 0.000000
0.992157 0.000000 0.007843
1.000000 0.003922 0.011765
0.996078 0.000000 0.000000
1.000000 0.003922 0.011765
1.000000 0.360784 0.003922
0.200000 0.184314 0.000000
0.145098 0.219608 0.133333
0.164706 0.203922 0.160784
0.192157 0.200000 0.180392
0.200000 0.207843 0.196078
0.184314 0.211765 0.149020
0.196078 0.227451 0.082353
0.243137 0.223529 0.003922
0.282353 0.192157 0.000000
0.352941 0.188235 0.000000
0.462745 0.215686 0.003922
0.603922 0.250980 0.007843
0.717647 0.278431 0.000000
0.756863 0.258824 0.000000
0.823529 0.223529 0.000000
0.850980 0.207843 0.007843
0.870588 0.176471 0.003922
0.901961 0.149020 0.000000
0.945098 0.164706 0.000000
0.968627 0.176471 0.000000
1.000000 0.184314 0.003922
0.988235 0.121569 0.007843
1.000000 0.090196 0.000000
1.000000 0.003922 0.011765
1.000000 0.325490 0.000000
0.313725 0.168627 0.003922
0.176471 0.290196 0.180392
0.215686 0.290196 0.211765
0.235294 0.286275 0.219608
0.254902 0.286275 0.235294
0.266667 0.270588 0.250980
0.243137 0.274510 0.184314
0.239216 0.282353 0.117647
0.270588 0.266667 0.003922
0.325490 0.207843 0.000000
0.396078 0.211765 0.000000
0.525490 0.258824 0.003922
0.650980 0.298039 0.000000
0.756863 0.329412 0.000000
0.819608 0.333333 0.000000
0.870588 0.317647 0.007843
0.890196 0.294118 0.000000
0.921569 0.278431 0.000000
0.952941 0.270588 0.000000
0.976471 0.258824 0.000000
0.996078 0.254902 0.000000
1.000000 0.219608 0.003922
1.000000 0.219608 0.007843
0.996078 0.215686 0.000000
1.000000 0.474510 0.000000
0.223529 0.247059 0.058824
0.258824 0.388235 0.282353
0.301961 0.396078 0.309804
0.317647 0.388235 0.301961
0.341176 0.380392 0.337255
0.360784 0.368627 0.349020
0.333333 0.356863 0.309804
0.305882 0.360784 0.231373
0.321569 0.356863 0.141176
0.352941 0.333333 0.003922
0.341176 0.243137 0.000000
0.400000 0.250980 0.000000
0.545098 0.298039 0.000000
0.650980 0.329412 0.000000
0.752941 0.364706 0.000000
0.858824 0.396078 0.003922
0.909804 0.392157 0.000000
0.941176 0.376471 0.000000
0.949020 0.360784 0.000000
0.996078 0.356863 0.000000
1.000000 0.345098 0.000000
1.000000 0.333333 0.000000
1.000000 0.337255 0.011765
0.996078 0.329412 0.000000
1.000000 0.333333 0.000000
0.321569 0.525490 0.345098
0.325490 0.529412 0.349020
0.329412 0.537255 0.364706
0.368627 0.533333 0.384314
0.407843 0.529412 0.396078
0.450980 0.509804 0.427451
0.466667 0.462745 0.454902
0.411765 0.447059 0.372549
0.384314 0.423529 0.286275
0.400000 0.403922 0.176471
0.431373 0.392157 0.011765
0.388235 0.278431 0.000000
0.486275 0.298039 0.007843
0.596078 0.337255 0.000000
0.690196 0.384314 0.000000
0.788235 0.407843 0.003922
0.870588 0.450980 0.003922
0.945098 0.454902 0.000000
0.984314 0.454902 0.003922
0.996078 0.447059 0.003922
1.000000 0.447059 0.000000
0.996078 0.415686 0.000000
1.000000 0.403922 0.011765
0.988235 0.403922 0.000000
1.000000 0.521569 0.000000
0.309804 0.301961 0.011765
0.427451 0.568627 0.427451
0.372549 0.607843 0.403922
0.470588 0.549020 0.443137
0.474510 0.549020 0.462745
0.498039 0.549020 0.478431
0.525490 0.537255 0.509804
0.525490 0.521569 0.501961
0.478431 0.498039 0.419608
0.435294 0.478431 0.313725
0.443137 0.447059 0.211765
0.478431 0.427451 0.050980
0.427451 0.313725 0.000000
0.490196 0.309804 0.007843
0.603922 0.364706 0.000000
0.694118 0.400000 0.003922
0.788235 0.435294 0.000000
0.894118 0.478431 0.000000
0.972549 0.505882 0.003922
1.000000 0.501961 0.000000
1.000000 0.486275 0.003922
0.996078 0.474510 0.000000
1.000000 0.482353 0.000000
0.996078 0.505882 0.000000
0.996078 0.635294 0.000000
0.388235 0.427451 0.329412
0.486275 0.600000 0.478431
0.450980 0.635294 0.462745
0.498039 0.611765 0.494118
0.537255 0.600000 0.498039
0.537255 0.596078 0.521569
0.564706 0.588235 0.549020
0.568627 0.568627 0.560784
0.552941 0.552941 0.521569
0.517647 0.533333 0.427451
0.482353 0.513725 0.329412
0.490196 0.494118 0.235294
0.517647 0.462745 0.117647
0.474510 0.380392 0.003922
0.509804 0.333333 0.000000
0.607843 0.376471 0.007843
0.709804 0.427451 0.000000
0.800000 0.466667 0.000000
0.898039 0.498039 0.000000
0.964706 0.525490 0.000000
1.000000 0.560784 0.000000
0.996078 0.552941 0.000000
1.000000 0.545098 0.000000
0.996078 0.552941 0.003922
1.000000 0.654902 0.003922
0.396078 0.423529 0.211765
0.501961 0.643137 0.501961
0.462745 0.674510 0.482353
0.545098 0.615686 0.529412
0.552941 0.623529 0.537255
0.560784 0.619608 0.545098
0.572549 0.615686 0.560784
0.596078 0.600000 0.568627
0.592157 0.588235 0.568627
0.564706 0.572549 0.517647
0.529412 0.568627 0.435294
0.521569 0.533333 0.349020
0.529412 0.509804 0.243137
0.541176 0.478431 0.101961
0.501961 0.384314 0.000000
0.529412 0.349020 0.003922
0.627451 0.403922 0.000000
0.721569 0.439216 0.007843
0.815686 0.478431 0.000000
0.921569 0.525490 0.000000
0.996078 0.564706 0.000000
1.000000 0.588235 0.000000
0.992157 0.596078 0.000000
0.996078 0.615686 0.000000
1.000000 0.619608 0.011765
0.501961 0.517647 0.450980
0.560784 0.658824 0.541176
0.521569 0.686275 0.537255
0.560784 0.658824 0.541176
0.568627 0.658824 0.556863
0.584314 0.654902 0.560784
0.600000 0.650980 0.572549
0.631373 0.639216 0.596078
0.639216 0.615686 0.615686
0.607843 0.607843 0.568627
0.584314 0.603922 0.513725
0.564706 0.588235 0.447059
0.560784 0.568627 0.376471
0.572549 0.541176 0.286275
0.588235 0.521569 0.168627
0.545098 0.439216 0.000000
0.529412 0.368627 0.007843
0.619608 0.411765 0.003922
0.713725 0.458824 0.003922
0.800000 0.498039 0.000000
0.878431 0.533333 0.011765
0.976471 0.576471 0.000000
1.000000 0.611765 0.000000
1.000000 0.650980 0.007843
1.000000 0.666667 0.007843
0.611765 0.752941 0.603922
0.600000 0.764706 0.615686
0.607843 0.768627 0.611765
0.603922 0.764706 0.607843
0.623529 0.760784 0.631373
0.654902 0.760784 0.639216
0.682353 0.749020 0.674510
0.694118 0.741176 0.662745
0.713725 0.721569 0.678431
0.725490 0.709804 0.705882
0.721569 0.709804 0.690196
0.690196 0.709804 0.623529
0.674510 0.694118 0.568627
0.670588 0.678431 0.486275
0.670588 0.650980 0.400000
0.686275 0.623529 0.282353
0.654902 0.564706 0.125490
0.623529 0.462745 0.007843
0.686275 0.474510 0.000000
0.776471 0.513725 0.000000
0.850980 0.549020 0.000000
0.921569 0.568627 0.000000
0.988235 0.619608 0.000000
1.000000 0.670588 0.000000
1.000000 0.666667 0.003922
0.596078 0.623529 0.490196
0.541176 0.827451 0.611765
0.662745 0.776471 0.654902
0.674510 0.764706 0.650980
0.674510 0.772549 0.654902
0.678431 0.776471 0.662745
0.690196 0.780392 0.678431
0.717647 0.768627 0.690196
0.733333 0.764706 0.713725
0.749020 0.745098 0.725490
0.760784 0.737255 0.737255
0.733333 0.733333 0.694118
0.721569 0.737255 0.639216
0.709804 0.713725 0.580392
0.705882 0.701961 0.513725
0.701961 0.678431 0.435294
0.709804 0.650980 0.325490
0.690196 0.584314 0.164706
0.647059 0.482353 0.007843
0.729412 0.505882 0.000000
0.811765 0.545098 0.007843
0.886275 0.580392 0.000000
0.956863 0.607843 0.000000
1.000000 0.686275 0.007843
0.800000 0.560784 0.000000
0.733333 0.701961 0.694118
0.615686 0.843137 0.647059
0.666667 0.815686 0.662745
0.698039 0.803922 0.674510
0.701961 0.800000 0.686275
0.717647 0.807843 0.698039
0.725490 0.803922 0.698039
0.745098 0.792157 0.705882
0.760784 0.788235 0.725490
0.780392 0.780392 0.749020
0.800000 0.764706 0.768627
0.776471 0.756863 0.745098
0.756863 0.768627 0.701961
0.752941 0.749020 0.666667
0.733333 0.749020 0.611765
0.733333 0.721569 0.545098
0.729412 0.698039 0.450980
0.729412 0.670588 0.352941
0.713725 0.615686 0.219608
0.686275 0.545098 0.074510
0.686275 0.482353 0.003922
0.792157 0.552941 0.003922
0.898039 0.592157 0.003922
0.988235 0.666667 0.000000
0.870588 0.619608 0.000000
0.698039 0.709804 0.635294
0.592157 0.886275 0.654902
0.729412 0.827451 0.713725
0.725490 0.815686 0.701961
0.741176 0.819608 0.721569
0.741176 0.819608 0.713725
0.741176 0.827451 0.737255
0.756863 0.815686 0.725490
0.784314 0.811765 0.749020
0.800000 0.803922 0.772549
0.811765 0.796078 0.784314
0.823529 0.788235 0.792157
0.803922 0.792157 0.764706
0.792157 0.784314 0.725490
0.772549 0.772549 0.662745
0.764706 0.772549 0.627451
0.760784 0.752941 0.560784
0.764706 0.721569 0.478431
0.760784 0.690196 0.360784
0.737255 0.611765 0.215686
0.698039 0.533333 0.000000
0.729412 0.517647 0.000000
0.823529 0.568627 0.003922
0.972549 0.647059 0.003922
0.843137 0.717647 0.329412
0.796078 0.760784 0.764706
0.698039 0.890196 0.713725
0.745098 0.858824 0.737255
0.752941 0.858824 0.729412
0.756863 0.854902 0.737255
0.772549 0.850980 0.741176
0.772549 0.850980 0.752941
0.788235 0.847059 0.756863
0.811765 0.847059 0.780392
0.823529 0.835294 0.800000
0.847059 0.831373 0.819608
0.858824 0.819608 0.811765
0.850980 0.819608 0.811765
0.831373 0.823529 0.776471
0.811765 0.823529 0.749020
0.807843 0.807843 0.705882
0.800000 0.803922 0.647059
0.803922 0.780392 0.584314
0.803922 0.760784 0.509804
0.792157 0.725490 0.411765
0.780392 0.662745 0.286275
0.745098 0.592157 0.125490
0.764706 0.560784 0.000000
0.862745 0.615686 0.007843
0.956863 0.674510 0.000000
0.847059 0.941176 0.847059
0.847059 0.937255 0.823529
0.847059 0.945098 0.831373
0.847059 0.945098 0.831373
0.866667 0.937255 0.843137
0.882353 0.929412 0.843137
0.890196 0.925490 0.858824
0.905882 0.921569 0.862745
0.933333 0.913725 0.898039
0.941176 0.901961 0.898039
0.925490 0.905882 0.894118
0.909804 0.901961 0.854902
0.909804 0.890196 0.815686
0.898039 0.882353 0.784314
0.905882 0.874510 0.721569
0.905882 0.858824 0.662745
0.929412 0.847059 0.584314
0.945098 0.807843 0.486275
0.945098 0.756863 0.356863
0.976471 0.741176 0.301961
1.000000 0.768627 0.282353
0.996078 0.800000 0.278431
1.000000 0.823529 0.270588
1.000000 0.850980 0.282353
1.000000 0.843137 0.364706
0.894118 0.878431 0.772549
0.870588 0.956863 0.866667
0.882353 0.952941 0.866667
0.886275 0.945098 0.862745
0.898039 0.949020 0.878431
0.913725 0.949020 0.874510
0.901961 0.945098 0.878431
0.921569 0.945098 0.890196
0.929412 0.929412 0.898039
0.956863 0.917647 0.913725
0.968627 0.921569 0.937255
0.945098 0.933333 0.913725
0.925490 0.925490 0.878431
0.929412 0.917647 0.843137
0.921569 0.917647 0.800000
0.933333 0.898039 0.745098
0.941176 0.886275 0.694118
0.968627 0.874510 0.623529
0.984314 0.835294 0.517647
0.984314 0.780392 0.392157
1.000000 0.803922 0.352941
1.000000 0.819608 0.341176
1.000000 0.831373 0.321569
1.000000 0.878431 0.341176
0.984314 0.835294 0.415686
0.941176 0.929412 0.862745
0.905882 0.964706 0.874510
0.901961 0.972549 0.886275
0.913725 0.960784 0.882353
0.909804 0.980392 0.886275
0.917647 0.968627 0.890196
0.933333 0.968627 0.901961
0.941176 0.964706 0.917647
0.941176 0.960784 0.933333
0.956863 0.952941 0.937255
0.984314 0.941176 0.956863
0.972549 0.949020 0.949020
0.952941 0.952941 0.913725
0.960784 0.949020 0.890196
0.949020 0.949020 0.854902
0.960784 0.949020 0.827451
0.972549 0.937255 0.768627
0.992157 0.929412 0.725490
0.996078 0.921569 0.662745
0.988235 0.905882 0.596078
0.992157 0.866667 0.525490
1.000000 0.835294 0.403922
1.000000 0.870588 0.388235
1.000000 0.898039 0.384314
0.996078 0.870588 0.435294
0.952941 0.949020 0.870588
0.905882 0.980392 0.901961
0.921569 0.972549 0.901961
0.925490 0.976471 0.909804
0.925490 0.976471 0.898039
0.929412 0.972549 0.909804
0.941176 0.972549 0.913725
0.941176 0.964706 0.917647
0.952941 0.964706 0.921569
0.960784 0.960784 0.929412
0.980392 0.945098 0.949020
0.984314 0.949020 0.960784
0.976471 0.952941 0.952941
0.960784 0.964706 0.941176
0.960784 0.964706 0.894118
0.968627 0.968627 0.874510
0.984314 0.960784 0.835294
1.000000 0.956863 0.780392
1.000000 0.964706 0.733333
1.000000 0.949020 0.682353
1.000000 0.929412 0.627451
1.000000 0.898039 0.533333
0.992157 0.905882 0.478431
1.000000 0.913725 0.478431
1.000000 0.952941 0.678431
0.972549 0.956863 0.913725
0.917647 0.968627 0.901961
0.921569 0.972549 0.905882
0.925490 0.964706 0.929412
0.941176 0.964706 0.917647
0.929412 0.960784 0.917647
0.941176 0.972549 0.921569
0.949020 0.960784 0.925490
0.956863 0.952941 0.933333
0.960784 0.960784 0.929412
0.960784 0.952941 0.956863
0.964706 0.949020 0.952941
0.964706 0.960784 0.952941
0.960784 0.956863 0.941176
0.960784 0.960784 0.929412
0.972549 0.956863 0.913725
0.960784 0.960784 0.866667
0.976471 0.960784 0.847059
0.976471 0.956863 0.800000
1.000000 0.956863 0.768627
0.992157 0.952941 0.713725
1.000000 0.945098 0.674510
1.000000 0.929412 0.631373
1.000000 0.921569 0.603922
0.996078 0.921569 0.611765
0.000000 0.023529 0.015686
0.000000 0.031373 0.000000
0.003922 0.031373 0.003922
0.000000 0.039216 0.007843
0.003922 0.039216 0.027451
0.031373 0.039216 0.027451
0.043137 0.047059 0.023529
0.082353 0.058824 0.011765
0.105882 0.074510 0.000000
0.215686 0.098039 0.003922
0.305882 0.121569 0.003922
0.384314 0.133333 0.000000
0.435294 0.125490 0.003922
0.454902 0.121569 0.000000
0.474510 0.101961 0.000000
0.505882 0.090196 0.003922
0.572549 0.082353 0.003922
0.635294 0.078431 0.000000
0.698039 0.074510 0.000000
0.749020 0.070588 0.003922
0.780392 0.070588 0.000000
0.800000 0.039216 0.003922
0.858824 0.000000 0.011765
0.925490 0.000000 0.007843
0.925490 0.431373 0.000000
0.031373 0.031373 0.000000
0.000000 0.070588 0.007843
0.000000 0.054902 0.003922
0.003922 0.054902 0.015686
0.031373 0.058824 0.031373
0.035294 0.054902 0.039216
0.047059 0.066667 0.043137
0.058824 0.086275 0.023529
0.109804 0.105882 0.000000
0.152941 0.094118 0.003922
0.239216 0.121569 0.000000
0.337255 0.141176 0.011765
0.400000 0.156863 0.000000
0.423529 0.152941 0.000000
0.447059 0.152941 0.000000
0.482353 0.137255 0.000000
0.533333 0.145098 0.000000
0.596078 0.141176 0.000000
0.658824 0.133333 0.000000
0.733333 0.133333 0.000000
0.764706 0.125490 0.000000
0.803922 0.117647 0.003922
0.839216 0.113725 0.000000
0.917647 0.141176 0.000000
0.819608 0.419608 0.000000
0.039216 0.047059 0.027451
0.003922 0.098039 0.011765
0.000000 0.094118 0.019608
0.000000 0.090196 0.027451
0.027451 0.090196 0.039216
0.054902 0.094118 0.058824
0.086275 0.094118 0.082353
0.078431 0.101961 0.062745
0.105882 0.125490 0.035294
0.156863 0.149020 0.000000
0.196078 0.133333 0.000000
0.270588 0.141176 0.003922
0.341176 0.164706 0.003922
0.384314 0.168627 0.007843
0.415686 0.168627 0.000000
0.450980 0.164706 0.000000
0.509804 0.180392 0.007843
0.560784 0.176471 0.000000
0.623529 0.184314 0.000000
0.682353 0.196078 0.000000
0.737255 0.207843 0.000000
0.772549 0.196078 0.000000
0.823529 0.176471 0.000000
0.894118 0.176471 0.003922
0.725490 0.376471 0.007843
0.050980 0.082353 0.000000
0.007843 0.203922 0.000000
0.011765 0.149020 0.019608
0.000000 0.152941 0.047059
0.000000 0.152941 0.047059
0.058824 0.156863 0.070588
0.105882 0.149020 0.086275
0.125490 0.149020 0.133333
0.125490 0.172549 0.094118
0.145098 0.188235 0.019608
0.180392 0.196078 0.000000
0.223529 0.180392 0.003922
0.278431 0.164706 0.000000
0.349020 0.176471 0.000000
0.388235 0.184314 0.000000
0.419608 0.180392 0.003922
0.454902 0.188235 0.000000
0.521569 0.207843 0.000000
0.592157 0.219608 0.007843
0.658824 0.231373 0.000000
0.705882 0.235294 0.000000
0.756863 0.235294 0.003922
0.803922 0.239216 0.003922
0.870588 0.243137 0.007843
0.635294 0.345098 0.000000
0.113725 0.121569 0.109804
0.000000 0.223529 0.007843
0.003922 0.223529 0.031373
0.000000 0.219608 0.050980
0.000000 0.219608 0.066667
0.054902 0.227451 0.098039
0.117647 0.215686 0.129412
0.160784 0.200000 0.164706
0.180392 0.207843 0.180392
0.164706 0.223529 0.094118
0.180392 0.231373 0.023529
0.227451 0.231373 0.003922
0.258824 0.223529 0.007843
0.301961 0.200000 0.000000
0.341176 0.192157 0.007843
0.388235 0.203922 0.000000
0.400000 0.196078 0.000000
0.462745 0.207843 0.000000
0.545098 0.235294 0.003922
0.627451 0.270588 0.000000
0.701961 0.282353 0.007843
0.741176 0.286275 0.000000
0.792157 0.290196 0.003922
0.831373 0.290196 0.007843
0.878431 0.309804 0.000000
0.003922 0.188235 0.054902
0.000000 0.192157 0.054902
0.007843 0.192157 0.066667
0.101961 0.168627 0.105882
0.141176 0.152941 0.109804
0.156863 0.172549 0.043137
0.258824 0.149020 0.000000
0.317647 0.145098 0.000000
0.376471 0.141176 0.000000
0.450980 0.125490 0.000000
0.501961 0.101961 0.003922
0.572549 0.074510 0.000000
0.639216 0.019608 0.007843
0.662745 0.000000 0.000000
0.694118 0.003922 0.003922
0.725490 0.000000 0.000000
0.768627 0.000000 0.003922
0.815686 0.000000 0.000000
0.839216 0.000000 0.000000
0.874510 0.000000 0.003922
0.905882 0.003922 0.011765
0.941176 0.000000 0.000000
0.996078 0.000000 0.000000
1.000000 0.003922 0.003922
1.000000 0.000000 0.015686
0.325490 0.133333 0.003922
0.003922 0.239216 0.098039
0.125490 0.207843 0.133333
0.180392 0.180392 0.172549
0.180392 0.192157 0.156863
0.160784 0.207843 0.121569
0.203922 0.211765 0.019608
0.266667 0.180392 0.000000
0.333333 0.172549 0.000000
0.396078 0.172549 0.000000
0.482353 0.196078 0.000000
0.584314 0.192157 0.000000
0.650980 0.176471 0.007843
0.686275 0.145098 0.000000
0.725490 0.125490 0.000000
0.752941 0.082353 0.003922
0.776471 0.047059 0.000000
0.811765 0.015686 0.000000
0.847059 0.000000 0.011765
0.882353 0.000000 0.003922
0.913725 0.003922 0.000000
0.949020 0.000000 0.000000
0.980392 0.003922 0.000000
1.000000 0.003922 0.003922
1.000000 0.290196 0.000000
0.219608 0.207843 0.000000
0.105882 0.243137 0.125490
0.156863 0.227451 0.164706
0.184314 0.227451 0.172549
0.203922 0.211765 0.192157
0.184314 0.227451 0.172549
0.196078 0.231373 0.109804
0.235294 0.231373 0.019608
0.290196 0.200000 0.003922
0.352941 0.188235 0.000000
0.427451 0.203922 0.000000
0.529412 0.239216 0.000000
0.647059 0.266667 0.000000
0.698039 0.250980 0.003922
0.752941 0.223529 0.003922
0.772549 0.207843 0.000000
0.792157 0.184314 0.000000
0.819608 0.164706 0.000000
0.843137 0.152941 0.000000
0.862745 0.160784 0.000000
0.913725 0.164706 0.000000
0.941176 0.129412 0.007843
0.996078 0.000000 0.007843
0.996078 0.000000 0.000000
1.000000 0.298039 0.000000
0.325490 0.172549 0.003922
0.027451 0.282353 0.149020
0.168627 0.262745 0.176471
0.203922 0.250980 0.196078
0.223529 0.247059 0.207843
0.227451 0.243137 0.239216
0.227451 0.254902 0.184314
0.223529 0.258824 0.145098
0.258824 0.254902 0.035294
0.305882 0.215686 0.011765
0.368627 0.215686 0.000000
0.462745 0.243137 0.003922
0.588235 0.274510 0.000000
0.682353 0.309804 0.000000
0.764706 0.329412 0.007843
0.796078 0.301961 0.000000
0.811765 0.286275 0.000000
0.835294 0.266667 0.003922
0.854902 0.247059 0.000000
0.886275 0.223529 0.000000
0.917647 0.231373 0.000000
0.937255 0.219608 0.000000
0.984314 0.215686 0.000000
1.000000 0.003922 0.000000
1.000000 0.450980 0.007843
0.219608 0.250980 0.058824
0.176471 0.329412 0.215686
0.227451 0.313725 0.231373
0.243137 0.309804 0.239216
0.250980 0.317647 0.247059
0.294118 0.305882 0.270588
0.286275 0.294118 0.282353
0.282353 0.317647 0.235294
0.278431 0.309804 0.149020
0.317647 0.301961 0.023529
0.333333 0.239216 0.003922
0.368627 0.227451 0.000000
0.478431 0.282353 0.000000
0.580392 0.309804 0.003922
0.694118 0.349020 0.000000
0.784314 0.376471 0.000000
0.839216 0.380392 0.003922
0.866667 0.360784 0.003922
0.874510 0.341176 0.003922
0.894118 0.321569 0.000000
0.917647 0.305882 0.003922
0.952941 0.301961 0.000000
0.980392 0.309804 0.000000
1.000000 0.301961 0.000000
0.996078 0.321569 0.000000
0.282353 0.525490 0.341176
0.282353 0.533333 0.337255
0.298039 0.525490 0.337255
0.356863 0.521569 0.372549
0.392157 0.505882 0.384314
0.439216 0.490196 0.423529
0.458824 0.454902 0.447059
0.403922 0.450980 0.364706
0.392157 0.431373 0.286275
