presets/3.cube
#Generated by lutCreator.js
#Coded by SirSerch
#https://github.com/SirSerch/LutCreatorJs
TITLE lutCreatorJs_25
LUT_3D_SIZE 25
0.003922 0.011765 0.000000
0.000000 0.011765 0.000000
0.019608 0.023529 0.003922
0.078431 0.019608 0.000000
0.200000 0.023529 0.003922
0.329412 0.000000 0.000000
0.423529 0.000000 0.000000
0.490196 0.003922 0.003922
0.560784 0.003922 0.000000
0.627451 0.000000 0.000000
0.698039 0.000000 0.000000
0.768627 0.003922 0.000000
0.839216 0.000000 0.007843
0.901961 0.000000 0.007843
0.941176 0.000000 0.000000
0.972549 0.000000 0.003922
1.000000 0.003922 0.003922
0.996078 0.000000 0.000000
1.000000 0.003922 0.003922
0.996078 0.000000 0.000000
0.996078 0.000000 0.000000
1.000000 0.003922 0.003922
1.000000 0.003922 0.011765
0.992157 0.000000 0.000000
1.000000 0.427451 0.274510
0.325490 0.000000 0.000000
0.023529 0.054902 0.011765
0.047059 0.054902 0.011765
0.121569 0.070588 0.000000
0.223529 0.078431 0.007843
0.325490 0.066667 0.003922
0.403922 0.011765 0.003922
0.470588 0.000000 0.000000
0.529412 0.000000 0.003922
0.592157 0.000000 0.000000
0.674510 0.000000 0.000000
0.737255 0.000000 0.011765
0.807843 0.000000 0.015686
0.854902 0.000000 0.000000
0.894118 0.000000 0.003922
0.960784 0.000000 0.000000
0.996078 0.000000 0.000000
0.996078 0.000000 0.000000
0.996078 0.000000 0.007843
1.000000 0.003922 0.011765
0.996078 0.000000 0.000000
1.000000 0.003922 0.003922
1.000000 0.003922 0.011765
0.992157 0.000000 0.011765
1.000000 0.447059 0.243137
0.231373 0.070588 0.000000
0.000000 0.117647 0.000000
0.043137 0.117647 0.007843
0.125490 0.141176 0.000000
0.219608 0.149020 0.000000
0.313725 0.141176 0.003922
0.384314 0.113725 0.000000
0.450980 0.078431 0.007843
0.509804 0.019608 0.000000
0.560784 0.003922 0.000000
0.639216 0.000000 0.011765
0.725490 0.003922 0.011765
0.780392 0.000000 0.000000
0.839216 0.000000 0.000000
0.882353 0.003922 0.000000
0.917647 0.000000 0.003922
0.984314 0.003922 0.007843
0.996078 0.000000 0.007843
0.996078 0.000000 0.000000
0.996078 0.000000 0.000000
1.000000 0.003922 0.011765
0.996078 0.000000 0.007843
1.000000 0.003922 0.011765
0.996078 0.000000 0.000000
0.996078 0.341176 0.137255
0.435294 0.050980 0.000000
0.000000 0.219608 0.003922
0.003922 0.211765 0.000000
0.000000 0.219608 0.000000
0.145098 0.219608 0.000000
0.243137 0.223529 0.003922
0.349020 0.203922 0.000000
0.431373 0.180392 0.007843
0.509804 0.168627 0.000000
0.588235 0.141176 0.007843
0.654902 0.109804 0.000000
0.725490 0.047059 0.019608
0.784314 0.000000 0.000000
0.835294 0.000000 0.007843
0.874510 0.003922 0.000000
0.909804 0.000000 0.000000
0.952941 0.003922 0.000000
0.992157 0.003922 0.000000
1.000000 0.003922 0.011765
0.996078 0.000000 0.000000
0.996078 0.000000 0.007843
1.000000 0.003922 0.003922
0.996078 0.000000 0.007843
0.996078 0.000000 0.000000
1.000000 0.501961 0.274510
0.309804 0.211765 0.000000
0.003922 0.278431 0.000000
0.003922 0.266667 0.003922
0.000000 0.274510 0.000000
0.015686 0.270588 0.003922
0.184314 0.274510 0.000000
0.349020 0.325490 0.000000
0.470588 0.321569 0.003922
0.545098 0.305882 0.000000
0.607843 0.286275 0.000000
0.666667 0.262745 0.000000
0.729412 0.250980 0.003922
0.776471 0.207843 0.000000
0.831373 0.184314 0.000000
0.874510 0.152941 0.003922
0.909804 0.149020 0.000000
0.941176 0.129412 0.003922
0.972549 0.133333 0.000000
1.000000 0.207843 0.000000
1.000000 0.219608 0.003922
0.992157 0.223529 0.000000
1.000000 0.219608 0.003922
1.000000 0.207843 0.007843
1.000000 0.188235 0.007843
0.996078 0.160784 0.000000
0.003922 0.372549 0.003922
0.000000 0.392157 0.003922
0.003922 0.388235 0.000000
0.000000 0.368627 0.000000
0.011765 0.333333 0.000000
0.321569 0.411765 0.003922
0.584314 0.454902 0.000000
0.658824 0.384314 0.007843
0.701961 0.329412 0.000000
0.745098 0.290196 0.000000
0.784314 0.270588 0.003922
0.827451 0.227451 0.003922
0.858824 0.203922 0.000000
0.901961 0.188235 0.000000
0.964706 0.227451 0.000000
0.992157 0.239216 0.000000
1.000000 0.239216 0.000000
1.000000 0.258824 0.000000
0.992157 0.278431 0.000000
1.000000 0.294118 0.003922
1.000000 0.309804 0.003922
0.996078 0.301961 0.003922
1.000000 0.270588 0.000000
1.000000 0.223529 0.000000
0.992157 0.517647 0.152941
0.486275 0.294118 0.000000
0.000000 0.443137 0.000000
0.000000 0.501961 0.003922
0.000000 0.482353 0.000000
0.000000 0.466667 0.003922
0.215686 0.482353 0.007843
0.450980 0.533333 0.000000
0.666667 0.568627 0.000000
0.741176 0.509804 0.000000
0.788235 0.454902 0.000000
0.823529 0.423529 0.000000
0.854902 0.388235 0.000000
0.894118 0.352941 0.000000
0.921569 0.329412 0.003922
0.960784 0.313725 0.000000
0.980392 0.301961 0.003922
0.996078 0.329412 0.000000
1.000000 0.345098 0.000000
1.000000 0.337255 0.000000
1.000000 0.345098 0.000000
0.992157 0.364706 0.000000
1.000000 0.360784 0.000000
1.000000 0.317647 0.000000
1.000000 0.274510 0.003922
1.000000 0.639216 0.298039
0.356863 0.415686 0.003922
0.011765 0.556863 0.000000
0.000000 0.580392 0.000000
0.000000 0.580392 0.000000
0.000000 0.560784 0.000000
0.168627 0.537255 0.003922
0.368627 0.572549 0.003922
0.560784 0.603922 0.000000
0.752941 0.627451 0.000000
0.827451 0.588235 0.000000
0.858824 0.545098 0.007843
0.890196 0.513725 0.000000
0.929412 0.482353 0.003922
0.937255 0.443137 0.007843
0.976471 0.419608 0.000000
0.996078 0.400000 0.003922
1.000000 0.400000 0.003922
1.000000 0.419608 0.000000
1.000000 0.423529 0.000000
0.996078 0.427451 0.000000
1.000000 0.435294 0.000000
0.996078 0.392157 0.000000
1.000000 0.368627 0.003922
1.000000 0.321569 0.000000
0.996078 0.596078 0.211765
0.650980 0.537255 0.000000
0.000000 0.631373 0.000000
0.000000 0.662745 0.000000
0.003922 0.650980 0.003922
0.000000 0.639216 0.003922
0.062745 0.611765 0.019608
0.301961 0.596078 0.098039
0.443137 0.623529 0.000000
0.635294 0.658824 0.000000
0.811765 0.690196 0.000000
0.870588 0.658824 0.000000
0.921569 0.607843 0.000000
0.937255 0.580392 0.000000
0.968627 0.556863 0.000000
0.976471 0.533333 0.015686
0.996078 0.509804 0.015686
1.000000 0.494118 0.023529
1.000000 0.498039 0.015686
1.000000 0.494118 0.054902
1.000000 0.498039 0.058824
0.996078 0.498039 0.054902
1.000000 0.450980 0.000000
1.000000 0.454902 0.003922
1.000000 0.403922 0.003922
0.988235 0.725490 0.376471
0.396078 0.541176 0.000000
0.000000 0.686275 0.086275
0.003922 0.709804 0.054902
0.000000 0.694118 0.066667
0.003922 0.682353 0.078431
0.082353 0.658824 0.109804
0.301961 0.639216 0.141176
0.423529 0.627451 0.133333
0.560784 0.674510 0.007843
0.686275 0.705882 0.000000
0.835294 0.733333 0.015686
0.905882 0.705882 0.003922
0.956863 0.674510 0.000000
0.968627 0.639216 0.011765
0.984314 0.623529 0.101961
1.000000 0.603922 0.149020
1.000000 0.588235 0.152941
1.000000 0.576471 0.149020
0.992157 0.564706 0.152941
0.996078 0.576471 0.168627
1.000000 0.564706 0.172549
1.000000 0.560784 0.160784
1.000000 0.545098 0.133333
1.000000 0.525490 0.003922
0.992157 0.505882 0.000000
0.000000 0.752941 0.105882
0.003922 0.756863 0.109804
0.000000 0.760784 0.109804
0.000000 0.764706 0.137255
0.003922 0.749020 0.152941
0.000000 0.725490 0.184314
0.231373 0.698039 0.188235
0.384314 0.670588 0.219608
0.501961 0.686275 0.184314
0.631373 0.717647 0.086275
0.745098 0.749020 0.007843
0.901961 0.776471 0.003922
0.952941 0.737255 0.000000
0.984314 0.713725 0.011765
0.996078 0.686275 0.000000
1.000000 0.662745 0.168627
0.996078 0.662745 0.207843
1.000000 0.643137 0.231373
0.996078 0.631373 0.227451
1.000000 0.647059 0.235294
1.000000 0.643137 0.239216
1.000000 0.611765 0.164706
1.000000 0.588235 0.007843
1.000000 0.545098 0.000000
1.000000 0.717647 0.345098
0.592157 0.654902 0.000000
0.000000 0.764706 0.211765
0.003922 0.811765 0.184314
0.000000 0.776471 0.207843
0.003922 0.768627 0.227451
0.000000 0.760784 0.211765
0.223529 0.741176 0.262745
0.356863 0.713725 0.254902
0.450980 0.690196 0.282353
0.572549 0.729412 0.247059
0.678431 0.749020 0.176471
0.803922 0.776471 0.023529
0.929412 0.800000 0.011765
0.972549 0.788235 0.003922
0.992157 0.756863 0.003922
0.996078 0.733333 0.082353
1.000000 0.717647 0.203922
1.000000 0.705882 0.254902
1.000000 0.690196 0.278431
1.000000 0.686275 0.274510
0.996078 0.682353 0.247059
0.996078 0.662745 0.243137
0.992157 0.647059 0.160784
0.992157 0.623529 0.000000
1.000000 0.827451 0.462745
0.419608 0.639216 0.219608
0.000000 0.796078 0.274510
0.000000 0.847059 0.262745
0.000000 0.803922 0.266667
0.000000 0.800000 0.286275
0.000000 0.792157 0.298039
0.243137 0.772549 0.298039
0.356863 0.749020 0.309804
0.450980 0.729412 0.313725
0.529412 0.713725 0.298039
0.635294 0.752941 0.274510
0.713725 0.780392 0.239216
0.831373 0.800000 0.160784
0.929412 0.827451 0.007843
0.988235 0.823529 0.007843
1.000000 0.803922 0.000000
0.988235 0.776471 0.117647
0.996078 0.764706 0.231373
1.000000 0.749020 0.286275
0.996078 0.749020 0.301961
1.000000 0.749020 0.317647
0.988235 0.725490 0.282353
1.000000 0.705882 0.176471
1.000000 0.674510 0.203922
1.000000 0.835294 0.447059
0.580392 0.698039 0.125490
0.003922 0.811765 0.317647
0.003922 0.858824 0.313725
0.003922 0.811765 0.317647
0.000000 0.819608 0.321569
0.047059 0.811765 0.349020
0.239216 0.792157 0.341176
0.356863 0.788235 0.349020
0.454902 0.749020 0.337255
0.529412 0.733333 0.349020
0.596078 0.745098 0.341176
0.678431 0.776471 0.317647
0.776471 0.796078 0.290196
0.870588 0.827451 0.223529
0.960784 0.847059 0.101961
1.000000 0.843137 0.086275
0.996078 0.835294 0.098039
0.996078 0.811765 0.160784
1.000000 0.800000 0.247059
1.000000 0.788235 0.294118
1.000000 0.776471 0.333333
0.996078 0.768627 0.345098
0.996078 0.745098 0.258824
1.000000 0.733333 0.235294
1.000000 0.894118 0.462745
0.458824 0.705882 0.294118
0.000000 0.827451 0.352941
0.000000 0.878431 0.345098
0.011765 0.850980 0.364706
0.000000 0.839216 0.360784
0.039216 0.843137 0.376471
0.247059 0.827451 0.388235
0.368627 0.811765 0.388235
0.450980 0.792157 0.384314
0.517647 0.768627 0.400000
0.584314 0.745098 0.376471
0.635294 0.776471 0.360784
0.733333 0.788235 0.345098
0.803922 0.831373 0.321569
0.890196 0.858824 0.282353
0.972549 0.878431 0.207843
1.000000 0.894118 0.168627
0.996078 0.874510 0.172549
1.000000 0.850980 0.172549
0.996078 0.839216 0.250980
1.000000 0.819608 0.309804
1.000000 0.803922 0.329412
1.000000 0.800000 0.372549
0.996078 0.784314 0.356863
1.000000 0.772549 0.349020
0.007843 0.929412 0.376471
0.000000 0.941176 0.396078
0.000000 0.941176 0.407843
0.000000 0.933333 0.396078
0.011765 0.929412 0.415686
0.000000 0.921569 0.415686
0.188235 0.913725 0.411765
0.345098 0.890196 0.423529
0.447059 0.874510 0.423529
0.529412 0.854902 0.439216
0.576471 0.835294 0.443137
0.631373 0.815686 0.439216
0.690196 0.835294 0.419608
0.760784 0.850980 0.403922
0.854902 0.874510 0.380392
0.913725 0.894118 0.329412
1.000000 0.913725 0.286275
1.000000 0.933333 0.211765
1.000000 0.921569 0.219608
0.996078 0.909804 0.200000
1.000000 0.898039 0.219608
0.996078 0.882353 0.278431
1.000000 0.858824 0.317647
1.000000 0.843137 0.294118
0.996078 0.909804 0.380392
0.623529 0.811765 0.231373
0.000000 1.000000 0.431373
0.000000 0.952941 0.439216
0.000000 0.952941 0.439216
0.000000 0.945098 0.435294
0.000000 0.949020 0.454902
0.223529 0.937255 0.462745
0.345098 0.929412 0.466667
0.439216 0.921569 0.466667
0.521569 0.898039 0.466667
0.596078 0.874510 0.474510
0.631373 0.854902 0.474510
0.682353 0.847059 0.462745
0.741176 0.866667 0.447059
0.811765 0.886275 0.431373
0.882353 0.898039 0.415686
0.956863 0.921569 0.376471
1.000000 0.937255 0.317647
0.996078 0.945098 0.258824
1.000000 0.933333 0.250980
1.000000 0.913725 0.262745
0.996078 0.898039 0.262745
1.000000 0.886275 0.274510
1.000000 0.854902 0.192157
1.000000 0.941176 0.309804
0.545098 0.854902 0.301961
0.000000 1.000000 0.458824
0.000000 0.992157 0.474510
0.000000 0.988235 0.470588
0.000000 0.984314 0.478431
0.152941 0.980392 0.474510
0.278431 0.976471 0.490196
0.368627 0.972549 0.494118
0.462745 0.952941 0.494118
0.541176 0.929412 0.501961
0.584314 0.921569 0.501961
0.639216 0.898039 0.505882
0.698039 0.874510 0.509804
0.717647 0.874510 0.494118
0.792157 0.898039 0.478431
0.854902 0.909804 0.466667
0.917647 0.937255 0.443137
0.976471 0.945098 0.407843
1.000000 0.956863 0.368627
0.996078 0.949020 0.305882
1.000000 0.933333 0.290196
1.000000 0.925490 0.278431
1.000000 0.909804 0.250980
0.988235 0.898039 0.215686
1.000000 0.941176 0.372549
0.643137 0.854902 0.368627
0.007843 1.000000 0.509804
0.000000 1.000000 0.501961
0.149020 1.000000 0.498039
0.203922 1.000000 0.509804
0.215686 1.000000 0.494118
0.309804 1.000000 0.513725
0.368627 0.996078 0.517647
0.466667 0.980392 0.525490
0.537255 0.968627 0.525490
0.600000 0.960784 0.533333
0.647059 0.941176 0.537255
0.698039 0.925490 0.533333
0.725490 0.894118 0.533333
0.776471 0.913725 0.513725
0.835294 0.921569 0.525490
0.886275 0.945098 0.478431
0.949020 0.956863 0.466667
0.992157 0.960784 0.423529
1.000000 0.952941 0.372549
0.996078 0.960784 0.321569
1.000000 0.941176 0.309804
1.000000 0.925490 0.282353
1.000000 0.898039 0.023529
1.000000 0.964706 0.411765
0.600000 0.945098 0.411765
0.000000 1.000000 0.545098
0.156863 1.000000 0.541176
0.247059 0.996078 0.541176
0.301961 0.996078 0.537255
0.337255 1.000000 0.549020
0.384314 1.000000 0.556863
0.447059 1.000000 0.560784
0.517647 1.000000 0.552941
0.572549 0.996078 0.556863
0.623529 0.988235 0.568627
0.670588 0.980392 0.552941
0.709804 0.968627 0.576471
0.729412 0.949020 0.560784
0.772549 0.933333 0.564706
0.823529 0.941176 0.549020
0.870588 0.945098 0.525490
0.909804 0.960784 0.513725
0.952941 0.968627 0.486275
1.000000 0.956863 0.462745
0.996078 0.960784 0.407843
1.000000 0.960784 0.337255
1.000000 0.949020 0.356863
1.000000 0.933333 0.337255
1.000000 0.921569 0.329412
0.541176 0.996078 0.701961
0.529412 1.000000 0.701961
0.529412 1.000000 0.717647
0.552941 1.000000 0.709804
0.580392 0.996078 0.705882
0.615686 1.000000 0.698039
0.670588 1.000000 0.705882
0.701961 1.000000 0.709804
0.741176 1.000000 0.709804
0.788235 1.000000 0.705882
0.815686 1.000000 0.713725
0.850980 1.000000 0.713725
0.874510 0.992157 0.701961
0.925490 0.988235 0.694118
0.937255 0.980392 0.670588
0.956863 0.980392 0.643137
0.988235 0.968627 0.639216
0.996078 0.960784 0.588235
1.000000 0.949020 0.600000
1.000000 0.945098 0.596078
0.996078 0.933333 0.588235
1.000000 0.925490 0.588235
1.000000 0.917647 0.611765
1.000000 0.913725 0.627451
1.000000 0.929412 0.631373
0.917647 0.988235 0.666667
0.635294 1.000000 0.725490
0.643137 0.996078 0.721569
0.643137 1.000000 0.717647
0.662745 1.000000 0.721569
0.674510 1.000000 0.717647
0.690196 1.000000 0.733333
0.721569 1.000000 0.717647
0.752941 1.000000 0.721569
0.776471 1.000000 0.729412
0.815686 1.000000 0.725490
0.835294 1.000000 0.717647
0.874510 1.000000 0.737255
0.886275 0.992157 0.713725
0.905882 0.988235 0.694118
0.937255 0.980392 0.682353
0.968627 0.972549 0.674510
0.992157 0.972549 0.654902
0.996078 0.972549 0.643137
1.000000 0.956863 0.635294
1.000000 0.945098 0.627451
1.000000 0.933333 0.619608
0.996078 0.929412 0.623529
1.000000 0.913725 0.650980
0.992157 0.964706 0.682353
0.901961 0.992157 0.717647
0.670588 1.000000 0.749020
0.666667 1.000000 0.745098
0.666667 1.000000 0.745098
0.678431 1.000000 0.741176
0.694118 0.992157 0.737255
0.701961 1.000000 0.745098
0.725490 0.996078 0.741176
0.764706 0.996078 0.745098
0.784314 1.000000 0.737255
0.800000 1.000000 0.737255
0.827451 1.000000 0.749020
0.843137 0.996078 0.749020
0.874510 0.992157 0.741176
0.901961 0.992157 0.725490
0.917647 0.980392 0.737255
0.937255 0.980392 0.713725
0.964706 0.976471 0.705882
0.992157 0.976471 0.698039
1.000000 0.976471 0.694118
1.000000 0.964706 0.682353
0.996078 0.964706 0.670588
1.000000 0.945098 0.666667
1.000000 0.933333 0.662745
0.996078 0.960784 0.698039
0.890196 0.988235 0.733333
0.690196 1.000000 0.772549
0.705882 1.000000 0.780392
0.694118 1.000000 0.772549
0.709804 1.000000 0.768627
0.721569 1.000000 0.772549
0.729412 1.000000 0.768627
0.745098 1.000000 0.780392
0.764706 1.000000 0.764706
0.784314 0.996078 0.768627
0.807843 1.000000 0.772549
0.827451 1.000000 0.768627
0.862745 0.992157 0.776471
0.874510 0.996078 0.772549
0.882353 0.992157 0.764706
0.905882 0.988235 0.756863
0.933333 0.988235 0.756863
0.952941 0.984314 0.760784
0.976471 0.980392 0.756863
0.996078 0.976471 0.756863
1.000000 0.972549 0.760784
0.996078 0.980392 0.733333
1.000000 0.968627 0.725490
1.000000 0.933333 0.729412
1.000000 0.980392 0.784314
0.882353 0.996078 0.776471
0.741176 1.000000 0.796078
0.741176 1.000000 0.792157
0.752941 0.996078 0.811765
0.756863 1.000000 0.807843
0.756863 1.000000 0.807843
0.772549 1.000000 0.803922
0.792157 0.996078 0.803922
0.800000 0.992157 0.807843
0.831373 1.000000 0.803922
0.819608 1.000000 0.807843
0.843137 0.996078 0.819608
0.858824 1.000000 0.819608
0.878431 1.000000 0.819608
0.901961 0.992157 0.819608
0.913725 0.996078 0.835294
0.925490 0.988235 0.835294
0.945098 0.988235 0.823529
0.956863 0.992157 0.823529
0.976471 0.984314 0.831373
0.996078 0.988235 0.839216
1.000000 0.980392 0.847059
1.000000 0.980392 0.854902
0.992157 0.980392 0.850980
0.996078 0.972549 0.847059
0.000000 0.101961 0.000000
0.003922 0.117647 0.000000
0.000000 0.141176 0.000000
0.000000 0.168627 0.000000
0.000000 0.196078 0.003922
0.000000 0.203922 0.000000
0.062745 0.223529 0.003922
0.184314 0.239216 0.000000
0.290196 0.254902 0.000000
0.349020 0.227451 0.003922
0.431373 0.235294 0.003922
0.505882 0.239216 0.000000
0.572549 0.243137 0.000000
0.643137 0.243137 0.000000
0.694118 0.247059 0.000000
0.737255 0.247059 0.000000
0.788235 0.243137 0.000000
0.823529 0.254902 0.007843
0.862745 0.262745 0.000000
0.917647 0.278431 0.007843
0.960784 0.290196 0.007843
0.992157 0.298039 0.000000
1.000000 0.286275 0.000000
0.996078 0.274510 0.000000
1.000000 0.698039 0.000000
0.101961 0.149020 0.007843
0.000000 0.254902 0.003922
0.000000 0.235294 0.000000
0.003922 0.239216 0.000000
0.000000 0.254902 0.003922
0.003922 0.266667 0.003922
0.000000 0.262745 0.000000
0.054902 0.278431 0.000000
0.192157 0.282353 0.007843
0.298039 0.270588 0.000000
0.407843 0.301961 0.000000
0.498039 0.313725 0.000000
0.568627 0.305882 0.000000
0.627451 0.305882 0.007843
0.694118 0.313725 0.003922
0.745098 0.317647 0.000000
0.784314 0.317647 0.000000
0.819608 0.309804 0.011765
0.862745 0.309804 0.000000
0.913725 0.313725 0.000000
0.964706 0.329412 0.011765
0.988235 0.337255 0.000000
1.000000 0.333333 0.000000
1.000000 0.352941 0.003922
0.996078 0.741176 0.003922
0.003922 0.239216 0.000000
0.000000 0.286275 0.000000
0.011765 0.294118 0.003922
0.007843 0.290196 0.000000
0.000000 0.305882 0.000000
0.000000 0.305882 0.007843
0.000000 0.301961 0.000000
0.000000 0.294118 0.000000
0.113725 0.301961 0.011765
0.231373 0.294118 0.000000
0.368627 0.345098 0.000000
0.482353 0.380392 0.000000
0.556863 0.384314 0.003922
0.615686 0.384314 0.000000
0.682353 0.372549 0.000000
0.737255 0.372549 0.007843
0.780392 0.380392 0.000000
0.815686 0.372549 0.000000
0.858824 0.368627 0.003922
0.901961 0.380392 0.007843
0.945098 0.400000 0.000000
0.976471 0.392157 0.000000
0.996078 0.380392 0.000000
1.000000 0.360784 0.000000
0.996078 0.768627 0.000000
0.098039 0.278431 0.000000
0.000000 0.329412 0.000000
0.000000 0.321569 0.000000
0.000000 0.325490 0.000000
0.011765 0.321569 0.003922
0.003922 0.333333 0.000000
0.000000 0.321569 0.000000
0.003922 0.325490 0.003922
0.015686 0.305882 0.000000
0.145098 0.333333 0.000000
0.270588 0.368627 0.000000
0.411765 0.419608 0.000000
0.541176 0.450980 0.003922
0.611765 0.450980 0.003922
0.682353 0.443137 0.000000
0.737255 0.439216 0.007843
0.772549 0.435294 0.000000
0.811765 0.427451 0.000000
0.850980 0.427451 0.000000
0.894118 0.435294 0.000000
0.945098 0.435294 0.000000
0.980392 0.439216 0.003922
1.000000 0.439216 0.000000
1.000000 0.435294 0.000000
0.996078 0.796078 0.000000
0.000000 0.313725 0.003922
0.000000 0.329412 0.000000
0.003922 0.341176 0.000000
0.003922 0.337255 0.003922
0.003922 0.341176 0.000000
0.007843 0.356863 0.003922
0.000000 0.356863 0.000000
0.007843 0.364706 0.000000
0.000000 0.368627 0.000000
0.058824 0.380392 0.000000
0.235294 0.400000 0.015686
0.356863 0.435294 0.000000
0.458824 0.474510 0.000000
0.592157 0.513725 0.000000
0.670588 0.525490 0.007843
0.717647 0.521569 0.007843
0.776471 0.505882 0.000000
0.807843 0.498039 0.000000
0.850980 0.501961 0.000000
0.894118 0.494118 0.000000
0.937255 0.498039 0.000000
0.984314 0.501961 0.000000
1.000000 0.498039 0.000000
0.996078 0.486275 0.000000
1.000000 0.478431 0.000000
0.000000 0.317647 0.015686
0.000000 0.325490 0.023529
0.000000 0.325490 0.019608
0.003922 0.313725 0.000000
0.050980 0.290196 0.019608
0.254902 0.345098 0.000000
0.486275 0.400000 0.000000
0.564706 0.352941 0.000000
0.607843 0.325490 0.000000
0.666667 0.305882 0.019608
0.701961 0.282353 0.015686
0.737255 0.254902 0.000000
0.776471 0.243137 0.007843
0.819608 0.227451 0.003922
0.850980 0.219608 0.003922
0.882353 0.215686 0.015686
0.925490 0.219608 0.019608
0.960784 0.215686 0.011765
0.984314 0.235294 0.019608
1.000000 0.290196 0.074510
1.000000 0.305882 0.094118
0.996078 0.254902 0.000000
1.000000 0.152941 0.000000
1.000000 0.090196 0.000000
0.996078 0.462745 0.227451
0.450980 0.258824 0.000000
0.000000 0.392157 0.164706
0.003922 0.403922 0.003922
0.003922 0.403922 0.015686
0.027451 0.392157 0.043137
0.196078 0.411765 0.054902
0.384314 0.466667 0.000000
0.588235 0.525490 0.000000
0.662745 0.462745 0.000000
0.705882 0.431373 0.000000
0.725490 0.407843 0.058824
0.760784 0.380392 0.070588
0.815686 0.360784 0.066667
0.831373 0.345098 0.062745
0.858824 0.333333 0.054902
0.890196 0.321569 0.066667
0.933333 0.313725 0.058824
0.972549 0.313725 0.070588
1.000000 0.325490 0.074510
1.000000 0.329412 0.070588
0.992157 0.333333 0.047059
0.992157 0.329412 0.011765
1.000000 0.313725 0.000000
1.000000 0.133333 0.000000
0.996078 0.564706 0.317647
0.364706 0.388235 0.000000
0.003922 0.466667 0.098039
0.000000 0.482353 0.011765
0.000000 0.486275 0.047059
0.000000 0.482353 0.082353
0.172549 0.474510 0.098039
0.329412 0.498039 0.074510
0.490196 0.545098 0.000000
0.682353 0.588235 0.000000
0.737255 0.533333 0.000000
0.760784 0.494118 0.003922
0.784314 0.478431 0.054902
0.815686 0.458824 0.141176
0.843137 0.443137 0.121569
0.866667 0.423529 0.117647
0.905882 0.411765 0.113725
0.937255 0.400000 0.125490
0.960784 0.403922 0.121569
0.992157 0.403922 0.105882
1.000000 0.407843 0.121569
1.000000 0.423529 0.109804
0.996078 0.396078 0.082353
1.000000 0.341176 0.062745
1.000000 0.270588 0.070588
0.996078 0.560784 0.352941
0.588235 0.462745 0.000000
0.007843 0.537255 0.239216
0.000000 0.556863 0.094118
0.000000 0.549020 0.098039
0.000000 0.549020 0.121569
0.074510 0.549020 0.145098
0.278431 0.541176 0.176471
0.396078 0.560784 0.129412
0.560784 0.600000 0.015686
0.737255 0.647059 0.003922
0.788235 0.615686 0.000000
0.823529 0.568627 0.003922
0.831373 0.545098 0.094118
0.854902 0.521569 0.168627
0.874510 0.513725 0.188235
0.901961 0.498039 0.188235
0.937255 0.486275 0.168627
0.972549 0.478431 0.176471
0.992157 0.478431 0.164706
1.000000 0.466667 0.160784
1.000000 0.466667 0.149020
1.000000 0.454902 0.121569
1.000000 0.450980 0.109804
0.996078 0.313725 0.074510
1.000000 0.686275 0.439216
0.447059 0.509804 0.000000
0.007843 0.572549 0.227451
0.000000 0.603922 0.172549
0.003922 0.603922 0.149020
0.000000 0.603922 0.184314
0.043137 0.603922 0.192157
0.258824 0.596078 0.200000
0.376471 0.584314 0.223529
0.494118 0.623529 0.180392
0.639216 0.662745 0.082353
0.776471 0.694118 0.000000
0.839216 0.674510 0.000000
0.862745 0.635294 0.007843
0.874510 0.596078 0.101961
0.894118 0.592157 0.184314
0.905882 0.568627 0.227451
0.937255 0.556863 0.247059
0.972549 0.552941 0.231373
1.000000 0.541176 0.219608
1.000000 0.537255 0.211765
1.000000 0.533333 0.203922
0.996078 0.521569 0.203922
0.996078 0.517647 0.192157
1.000000 0.505882 0.164706
1.000000 0.494118 0.156863
0.007843 0.760784 0.180392
0.000000 0.768627 0.203922
0.003922 0.760784 0.200000
0.000000 0.756863 0.207843
0.007843 0.741176 0.235294
0.000000 0.721569 0.243137
0.290196 0.690196 0.250980
0.403922 0.674510 0.258824
0.505882 0.690196 0.250980
