presets/3.cube
#Generated by lutCreator.js
#Coded by SirSerch
#https://github.com/SirSerch/LutCreatorJs
TITLE lutCreatorJs_25
LUT_3D_SIZE 9
0.003922 0.011765 0.000000
0.078431 0.019608 0.000000
0.423529 0.000000 0.000000
0.627451 0.000000 0.000000
0.839216 0.000000 0.007843
0.972549 0.000000 0.003922
1.000000 0.003922 0.003922
1.000000 0.003922 0.003922
1.000000 0.427451 0.274510
0.435294 0.050980 0.000000
0.000000 0.219608 0.000000
0.349020 0.203922 0.000000
0.588235 0.141176 0.007843
0.784314 0.000000 0.000000
0.909804 0.000000 0.000000
1.000000 0.003922 0.011765
1.000000 0.003922 0.003922
1.000000 0.501961 0.274510
0.486275 0.294118 0.000000
0.000000 0.482353 0.000000
0.450980 0.533333 0.000000
0.788235 0.454902 0.000000
0.894118 0.352941 0.000000
0.980392 0.301961 0.003922
1.000000 0.337255 0.000000
1.000000 0.360784 0.000000
1.000000 0.639216 0.298039
0.396078 0.541176 0.000000
0.000000 0.694118 0.066667
0.301961 0.639216 0.141176
0.686275 0.705882 0.000000
0.956863 0.674510 0.000000
1.000000 0.603922 0.149020
0.992157 0.564706 0.152941
1.000000 0.560784 0.160784
0.992157 0.505882 0.000000
0.419608 0.639216 0.219608
0.000000 0.803922 0.266667
0.243137 0.772549 0.298039
0.529412 0.713725 0.298039
0.831373 0.800000 0.160784
1.000000 0.803922 0.000000
1.000000 0.749020 0.286275
0.988235 0.725490 0.282353
1.000000 0.835294 0.447059
0.007843 0.929412 0.376471
0.000000 0.933333 0.396078
0.188235 0.913725 0.411765
0.529412 0.854902 0.439216
0.690196 0.835294 0.419608
0.913725 0.894118 0.329412
1.000000 0.921569 0.219608
0.996078 0.882353 0.278431
0.996078 0.909804 0.380392
0.643137 0.854902 0.368627
0.149020 1.000000 0.498039
0.309804 1.000000 0.513725
0.537255 0.968627 0.525490
0.698039 0.925490 0.533333
0.835294 0.921569 0.525490
0.992157 0.960784 0.423529
1.000000 0.941176 0.309804
1.000000 0.964706 0.411765
0.917647 0.988235 0.666667
0.643137 1.000000 0.717647
0.690196 1.000000 0.733333
0.776471 1.000000 0.729412
0.874510 1.000000 0.737255
0.937255 0.980392 0.682353
0.996078 0.972549 0.643137
1.000000 0.933333 0.619608
0.992157 0.964706 0.682353
0.882353 0.996078 0.776471
0.752941 0.996078 0.811765
0.772549 1.000000 0.803922
0.831373 1.000000 0.803922
0.858824 1.000000 0.819608
0.913725 0.996078 0.835294
0.956863 0.992157 0.823529
1.000000 0.980392 0.847059
0.996078 0.972549 0.847059
0.000000 0.125490 0.000000
0.000000 0.215686 0.000000
0.019608 0.247059 0.007843
0.388235 0.254902 0.003922
0.603922 0.274510 0.000000
0.760784 0.274510 0.000000
0.878431 0.286275 0.000000
1.000000 0.317647 0.007843
1.000000 0.713725 0.019608
0.137255 0.286275 0.000000
0.003922 0.333333 0.000000
0.003922 0.329412 0.007843
0.180392 0.364706 0.000000
0.572549 0.478431 0.000000
0.749020 0.454902 0.000000
0.858824 0.447059 0.000000
0.976471 0.435294 0.000000
1.000000 0.792157 0.007843
0.482353 0.247059 0.003922
0.000000 0.427451 0.141176
0.403922 0.466667 0.172549
0.686275 0.431373 0.203922
0.803922 0.376471 0.207843
0.894118 0.349020 0.188235
0.980392 0.349020 0.176471
0.996078 0.345098 0.156863
1.000000 0.584314 0.388235
0.486275 0.521569 0.023529
0.000000 0.611765 0.231373
0.282353 0.603922 0.274510
0.647059 0.658824 0.207843
0.843137 0.623529 0.141176
0.905882 0.572549 0.317647
0.984314 0.549020 0.278431
1.000000 0.525490 0.254902
1.000000 0.494118 0.196078
0.427451 0.643137 0.274510
0.000000 0.807843 0.360784
0.274510 0.784314 0.368627
0.541176 0.721569 0.368627
0.803922 0.800000 0.305882
1.000000 0.803922 0.219608
0.996078 0.768627 0.349020
0.996078 0.737255 0.360784
1.000000 0.823529 0.490196
0.000000 0.929412 0.458824
0.000000 0.933333 0.462745
0.286275 0.905882 0.470588
0.556863 0.862745 0.474510
0.713725 0.831373 0.454902
0.925490 0.898039 0.380392
1.000000 0.921569 0.298039
1.000000 0.890196 0.329412
0.996078 0.929412 0.349020
0.643137 0.858824 0.392157
0.203922 0.996078 0.525490
0.345098 1.000000 0.549020
0.568627 0.972549 0.545098
0.705882 0.921569 0.556863
0.847059 0.929412 0.533333
0.988235 0.960784 0.443137
1.000000 0.945098 0.325490
1.000000 0.968627 0.454902
0.941176 0.984314 0.717647
0.725490 1.000000 0.788235
0.768627 1.000000 0.780392
0.843137 1.000000 0.768627
0.921569 0.980392 0.749020
0.980392 0.968627 0.698039
1.000000 0.945098 0.705882
0.996078 0.917647 0.717647
0.996078 0.945098 0.729412
0.909804 0.980392 0.823529
0.796078 1.000000 0.847059
0.811765 1.000000 0.843137
0.850980 1.000000 0.839216
0.898039 0.992157 0.850980
0.941176 0.984314 0.858824
0.984314 0.980392 0.862745
1.000000 0.972549 0.882353
0.996078 0.952941 0.882353
0.000000 0.133333 0.211765
0.000000 0.176471 0.266667
0.278431 0.188235 0.298039
0.443137 0.152941 0.203922
0.615686 0.196078 0.227451
0.764706 0.227451 0.258824
0.890196 0.262745 0.262745
0.996078 0.286275 0.250980
1.000000 0.729412 0.423529
0.180392 0.290196 0.000000
0.000000 0.333333 0.117647
0.000000 0.325490 0.121569
0.400000 0.388235 0.109804
0.615686 0.403922 0.231373
0.768627 0.407843 0.254902
0.878431 0.392157 0.250980
0.984314 0.384314 0.219608
1.000000 0.815686 0.258824
0.509804 0.262745 0.227451
0.007843 0.431373 0.439216
0.388235 0.447059 0.458824
0.647059 0.450980 0.454902
0.784314 0.423529 0.435294
0.890196 0.407843 0.415686
0.992157 0.403922 0.407843
0.996078 0.403922 0.376471
1.000000 0.588235 0.549020
0.450980 0.537255 0.254902
0.007843 0.650980 0.450980
0.286275 0.647059 0.462745
0.615686 0.639216 0.450980
0.811765 0.631373 0.490196
0.894118 0.596078 0.494118
0.980392 0.576471 0.454902
1.000000 0.552941 0.431373
1.000000 0.525490 0.380392
0.494118 0.658824 0.376471
0.000000 0.819608 0.494118
0.247059 0.800000 0.494118
0.564706 0.741176 0.517647
0.807843 0.784314 0.486275
0.988235 0.788235 0.478431
1.000000 0.768627 0.549020
0.996078 0.737255 0.509804
1.000000 0.807843 0.611765
0.000000 0.941176 0.545098
0.000000 0.949020 0.552941
0.215686 0.917647 0.549020
0.549020 0.874510 0.552941
0.709804 0.827451 0.552941
0.921569 0.886275 0.521569
0.992157 0.913725 0.474510
1.000000 0.870588 0.517647
1.000000 0.913725 0.580392
0.643137 0.870588 0.470588
0.133333 1.000000 0.584314
0.286275 0.992157 0.600000
0.533333 0.980392 0.596078
0.709804 0.925490 0.600000
0.831373 0.917647 0.592157
0.984314 0.960784 0.529412
1.000000 0.941176 0.466667
1.000000 0.968627 0.533333
0.937255 0.988235 0.717647
0.658824 1.000000 0.788235
0.682353 1.000000 0.772549
0.768627 1.000000 0.772549
0.862745 1.000000 0.772549
0.933333 0.976471 0.741176
1.000000 0.964706 0.721569
0.996078 0.937255 0.705882
1.000000 0.968627 0.745098
0.905882 0.992157 0.811765
0.756863 1.000000 0.815686
0.792157 0.996078 0.843137
0.823529 0.996078 0.858824
0.878431 0.992157 0.870588
0.913725 0.988235 0.862745
0.960784 0.988235 0.858824
1.000000 0.980392 0.866667
0.996078 0.964706 0.882353
0.003922 0.239216 0.380392
0.000000 0.262745 0.384314
0.000000 0.270588 0.384314
0.364706 0.219608 0.349020
0.596078 0.309804 0.376471
0.752941 0.352941 0.407843
0.866667 0.368627 0.411765
0.996078 0.384314 0.400000
1.000000 0.721569 0.611765
0.258824 0.305882 0.007843
0.000000 0.407843 0.278431
0.000000 0.431373 0.294118
0.192157 0.443137 0.309804
0.580392 0.498039 0.313725
0.725490 0.505882 0.407843
0.870588 0.494118 0.396078
0.988235 0.509804 0.364706
0.996078 0.796078 0.572549
0.517647 0.164706 0.403922
0.168627 0.313725 0.427451
0.325490 0.345098 0.494118
0.603922 0.356863 0.572549
0.760784 0.380392 0.556863
0.862745 0.396078 0.545098
0.968627 0.403922 0.533333
0.996078 0.411765 0.529412
1.000000 0.564706 0.682353
0.588235 0.466667 0.525490
0.000000 0.584314 0.576471
0.278431 0.584314 0.584314
0.588235 0.592157 0.611765
0.745098 0.603922 0.603922
0.839216 0.580392 0.596078
0.941176 0.564706 0.572549
1.000000 0.545098 0.549020
0.996078 0.529412 0.513725
0.517647 0.705882 0.556863
0.000000 0.866667 0.705882
0.200000 0.843137 0.698039
0.572549 0.788235 0.662745
0.776471 0.772549 0.650980
0.949020 0.776471 0.662745
0.996078 0.760784 0.666667
1.000000 0.737255 0.631373
1.000000 0.815686 0.705882
0.003922 0.960784 0.709804
0.000000 0.960784 0.721569
0.152941 0.945098 0.709804
0.549020 0.905882 0.674510
0.725490 0.850980 0.666667
0.909804 0.894118 0.654902
0.996078 0.909804 0.623529
1.000000 0.878431 0.666667
1.000000 0.921569 0.658824
0.666667 0.894118 0.552941
0.003922 1.000000 0.698039
0.250980 1.000000 0.709804
0.501961 0.996078 0.678431
0.701961 0.960784 0.678431
0.819608 0.913725 0.670588
0.980392 0.952941 0.635294
1.000000 0.941176 0.584314
0.996078 0.976471 0.654902
0.937255 0.976471 0.839216
0.690196 0.996078 0.901961
0.713725 1.000000 0.886275
0.800000 1.000000 0.878431
0.905882 0.980392 0.862745
0.964706 0.964706 0.831373
0.992157 0.949020 0.831373
0.996078 0.929412 0.858824
1.000000 0.952941 0.866667
0.921569 0.984314 0.870588
0.784314 1.000000 0.874510
0.815686 0.996078 0.886275
0.870588 0.996078 0.901961
0.913725 0.984314 0.921569
0.945098 0.972549 0.909804
0.976471 0.980392 0.925490
1.000000 0.972549 0.933333
1.000000 0.964706 0.937255
0.000000 0.196078 0.584314
0.007843 0.207843 0.568627
0.211765 0.188235 0.541176
0.392157 0.149020 0.482353
0.588235 0.121569 0.529412
0.749020 0.196078 0.556863
0.874510 0.258824 0.560784
0.980392 0.298039 0.576471
1.000000 0.678431 0.741176
0.305882 0.301961 0.325490
0.000000 0.282353 0.435294
0.070588 0.278431 0.403922
0.313725 0.305882 0.450980
0.568627 0.349020 0.533333
0.729412 0.392157 0.545098
0.847059 0.407843 0.549020
0.952941 0.411765 0.552941
0.976471 0.717647 0.721569
0.556863 0.164706 0.509804
0.270588 0.329412 0.584314
0.372549 0.352941 0.611765
0.560784 0.360784 0.662745
0.749020 0.356863 0.694118
0.874510 0.368627 0.682353
0.968627 0.392157 0.670588
1.000000 0.403922 0.654902
0.992157 0.545098 0.788235
0.533333 0.501961 0.584314
0.250980 0.501961 0.611765
0.360784 0.505882 0.619608
0.537255 0.533333 0.666667
0.749020 0.549020 0.717647
0.850980 0.552941 0.694118
0.945098 0.549020 0.674510
1.000000 0.533333 0.658824
0.996078 0.513725 0.623529
0.584314 0.752941 0.713725
0.090196 0.780392 0.780392
0.329412 0.768627 0.784314
0.580392 0.749020 0.776471
0.772549 0.733333 0.768627
0.890196 0.733333 0.768627
0.988235 0.709804 0.741176
0.996078 0.701961 0.721569
1.000000 0.752941 0.796078
0.003922 0.996078 0.874510
0.003922 0.996078 0.882353
0.007843 0.984314 0.858824
0.505882 0.941176 0.815686
0.721569 0.890196 0.780392
0.886275 0.870588 0.772549
1.000000 0.886275 0.784314
0.992157 0.874510 0.780392
0.996078 0.909804 0.815686
0.674510 0.925490 0.686275
0.000000 1.000000 0.823529
0.125490 1.000000 0.823529
0.458824 1.000000 0.800000
0.654902 0.988235 0.772549
0.827451 0.933333 0.756863
0.980392 0.960784 0.741176
1.000000 0.929412 0.698039
1.000000 0.964706 0.733333
0.941176 0.972549 0.882353
0.600000 1.000000 0.921569
0.631373 0.996078 0.921569
0.713725 1.000000 0.905882
0.831373 1.000000 0.890196
0.921569 0.968627 0.874510
0.992157 0.964706 0.862745
1.000000 0.937255 0.874510
1.000000 0.949020 0.898039
0.921569 0.980392 0.898039
0.698039 1.000000 0.886275
0.741176 1.000000 0.890196
0.811765 1.000000 0.905882
0.898039 0.992157 0.929412
0.925490 0.992157 0.929412
0.964706 0.980392 0.925490
0.992157 0.980392 0.945098
1.000000 0.972549 0.949020
0.003922 0.254902 0.537255
0.003922 0.254902 0.537255
0.109804 0.243137 0.494118
0.305882 0.239216 0.505882
0.521569 0.266667 0.580392
0.729412 0.286275 0.647059
0.870588 0.329412 0.666667
0.972549 0.349020 0.670588
1.000000 0.615686 0.839216
0.290196 0.247059 0.411765
0.000000 0.298039 0.423529
0.000000 0.317647 0.450980
0.207843 0.352941 0.466667
0.447059 0.403922 0.568627
0.678431 0.435294 0.627451
0.827451 0.454902 0.627451
0.933333 0.450980 0.623529
0.992157 0.666667 0.784314
0.541176 0.196078 0.596078
0.333333 0.356863 0.654902
0.396078 0.368627 0.674510
0.541176 0.368627 0.709804
0.713725 0.372549 0.752941
0.839216 0.356863 0.772549
0.956863 0.345098 0.764706
1.000000 0.360784 0.749020
1.000000 0.498039 0.901961
0.584314 0.380392 0.670588
0.321569 0.462745 0.658824
0.388235 0.482353 0.662745
0.517647 0.498039 0.709804
0.698039 0.509804 0.745098
0.823529 0.505882 0.776471
0.933333 0.498039 0.764706
0.996078 0.482353 0.741176
0.996078 0.470588 0.717647
0.541176 0.611765 0.705882
0.309804 0.662745 0.756863
0.384314 0.666667 0.764706
0.521569 0.654902 0.752941
0.694118 0.666667 0.788235
0.870588 0.690196 0.835294
0.972549 0.670588 0.811765
1.000000 0.654902 0.792157
0.984314 0.717647 0.870588
0.000000 0.921569 0.921569
0.000000 0.917647 0.921569
0.235294 0.909804 0.917647
0.525490 0.898039 0.913725
0.705882 0.878431 0.890196
0.866667 0.847059 0.862745
0.992157 0.854902 0.878431
0.992157 0.835294 0.839216
0.996078 0.913725 0.901961
0.654902 0.972549 0.803922
0.000000 1.000000 0.945098
0.003922 1.000000 0.941176
0.396078 1.000000 0.925490
0.627451 1.000000 0.905882
0.796078 0.976471 0.862745
0.956863 0.956863 0.823529
0.996078 0.929412 0.819608
0.992157 0.956863 0.835294
0.956863 0.945098 0.988235
0.690196 0.996078 1.000000
0.709804 1.000000 1.000000
0.780392 1.000000 0.996078
0.882353 0.980392 1.000000
0.960784 0.952941 0.972549
1.000000 0.937255 0.949020
1.000000 0.929412 0.945098
0.996078 0.949020 0.956863
0.909804 0.972549 0.960784
0.737255 1.000000 0.964706
0.780392 0.996078 0.972549
0.843137 1.000000 0.964706
0.909804 0.988235 0.952941
0.952941 0.976471 0.960784
0.972549 0.972549 0.964706
0.992157 0.976471 0.972549
0.996078 0.972549 0.980392
0.211765 0.219608 0.560784
0.211765 0.231373 0.552941
0.294118 0.247059 0.584314
0.431373 0.250980 0.635294
0.592157 0.262745 0.698039
0.760784 0.266667 0.760784
0.870588 0.239216 0.780392
0.972549 0.215686 0.768627
1.000000 0.537255 0.952941
0.345098 0.254902 0.529412
0.192157 0.282353 0.549020
0.239216 0.309804 0.560784
0.364706 0.325490 0.603922
0.525490 0.341176 0.658824
0.690196 0.356863 0.721569
0.835294 0.337255 0.741176
0.937255 0.325490 0.745098
0.956863 0.568627 0.882353
0.615686 0.270588 0.713725
0.447059 0.400000 0.784314
0.490196 0.411765 0.792157
0.596078 0.411765 0.819608
0.733333 0.403922 0.843137
0.866667 0.400000 0.862745
0.968627 0.352941 0.866667
0.992157 0.337255 0.850980
0.996078 0.482353 0.984314
0.560784 0.447059 0.709804
0.400000 0.498039 0.756863
0.447059 0.505882 0.776471
0.564706 0.498039 0.803922
0.701961 0.509804 0.831373
0.831373 0.505882 0.858824
0.941176 0.478431 0.847059
1.000000 0.470588 0.843137
1.000000 0.454902 0.831373
0.549020 0.596078 0.752941
0.392157 0.603922 0.776471
0.419608 0.603922 0.776471
0.513725 0.619608 0.803922
0.678431 0.627451 0.847059
0.835294 0.643137 0.901961
0.980392 0.627451 0.909804
1.000000 0.619608 0.890196
1.000000 0.678431 0.960784
0.219608 0.823529 0.925490
0.247059 0.815686 0.921569
0.352941 0.815686 0.917647
0.501961 0.792157 0.905882
0.647059 0.760784 0.878431
0.803922 0.764706 0.909804
0.996078 0.776471 0.960784
0.996078 0.768627 0.929412
1.000000 0.835294 0.976471
0.619608 0.898039 0.913725
0.000000 0.972549 0.972549
0.141176 0.972549 0.984314
0.396078 0.964706 0.984314
0.584314 0.956863 0.964706
0.745098 0.937255 0.952941
0.941176 0.913725 0.941176
1.000000 0.901961 0.937255
0.988235 0.941176 0.941176
0.960784 0.925490 1.000000
0.615686 1.000000 1.000000
0.650980 1.000000 1.000000
0.705882 0.996078 1.000000
0.819608 0.980392 0.996078
0.929412 0.968627 1.000000
0.992157 0.937255 0.988235
0.996078 0.929412 0.968627
0.996078 0.952941 0.976471
0.925490 0.968627 0.984314
0.682353 0.992157 1.000000
0.694118 1.000000 0.992157
0.760784 0.996078 0.988235
0.839216 1.000000 0.976471
0.921569 0.984314 0.972549
0.960784 0.980392 0.964706
0.996078 0.980392 0.976471
0.988235 0.984314 0.976471
0.325490 0.352941 0.709804
0.333333 0.360784 0.717647
0.392157 0.372549 0.741176
0.501961 0.376471 0.764706
0.631373 0.380392 0.811765
0.760784 0.372549 0.831373
0.870588 0.356863 0.858824
0.980392 0.309804 0.858824
1.000000 0.494118 0.972549
0.427451 0.298039 0.639216
0.243137 0.376471 0.658824
0.278431 0.396078 0.678431
0.376471 0.407843 0.701961
0.513725 0.415686 0.741176
0.662745 0.431373 0.784314
0.831373 0.431373 0.831373
0.949020 0.384314 0.831373
0.945098 0.580392 0.937255
0.662745 0.333333 0.819608
0.568627 0.466667 0.894118
0.600000 0.470588 0.921569
0.670588 0.462745 0.909804
0.772549 0.443137 0.921569
0.858824 0.423529 0.925490
0.952941 0.384314 0.921569
1.000000 0.333333 0.921569
1.000000 0.490196 0.992157
0.658824 0.411765 0.823529
0.501961 0.521569 0.890196
0.529412 0.533333 0.886275
0.623529 0.529412 0.898039
0.737255 0.513725 0.917647
0.827451 0.509804 0.921569
0.925490 0.486275 0.917647
0.992157 0.447059 0.905882
1.000000 0.423529 0.882353
0.556863 0.576471 0.843137
0.450980 0.631373 0.874510
0.478431 0.623529 0.898039
0.560784 0.615686 0.901961
0.713725 0.615686 0.941176
0.839216 0.627451 0.964706
0.964706 0.615686 0.968627
1.000000 0.572549 0.960784
0.992157 0.654902 0.996078
0.352941 0.788235 0.964706
0.368627 0.788235 0.968627
0.415686 0.776471 0.968627
0.517647 0.745098 0.941176
0.627451 0.717647 0.929412
0.776471 0.733333 0.968627
0.956863 0.741176 0.996078
1.000000 0.729412 1.000000
1.000000 0.811765 1.000000
0.564706 0.823529 0.925490
0.184314 0.913725 1.000000
0.266667 0.917647 1.000000
0.396078 0.898039 0.996078
0.552941 0.882353 0.992157
0.674510 0.835294 0.945098
0.874510 0.835294 0.968627
1.000000 0.878431 1.000000
0.980392 0.937255 1.000000
0.972549 0.878431 0.980392
0.737255 0.925490 1.000000
0.764706 0.925490 0.996078
0.803922 0.905882 0.996078
0.882353 0.913725 0.996078
0.972549 0.921569 0.992157
0.996078 0.921569 0.996078
1.000000 0.913725 0.996078
1.000000 0.941176 1.000000
0.941176 0.956863 1.000000
0.803922 0.992157 1.000000
0.807843 0.996078 1.000000
0.847059 0.984314 1.000000
0.894118 0.964706 1.000000
0.945098 0.960784 1.000000
0.968627 0.972549 0.992157
0.992157 0.976471 0.980392
0.996078 0.980392 0.984314
0.588235 0.490196 0.890196
0.600000 0.498039 0.894118
0.623529 0.498039 0.894118
0.682353 0.478431 0.901961
0.737255 0.462745 0.901961
0.807843 0.443137 0.901961
0.878431 0.411765 0.905882
0.968627 0.360784 0.909804
0.976471 0.588235 1.000000
0.576471 0.403922 0.788235
0.545098 0.478431 0.847059
0.564706 0.482353 0.854902
0.615686 0.482353 0.862745
0.686275 0.470588 0.870588
0.764706 0.454902 0.874510
0.850980 0.431373 0.886275
0.937255 0.392157 0.890196
0.901961 0.607843 0.964706
0.737255 0.431373 0.901961
0.682353 0.560784 0.968627
0.701961 0.564706 0.972549
0.745098 0.552941 0.972549
0.796078 0.529412 0.964706
0.870588 0.513725 0.972549
0.937255 0.490196 0.968627
1.000000 0.443137 0.976471
1.000000 0.576471 1.000000
0.678431 0.498039 0.882353
0.647059 0.596078 0.956863
0.658824 0.592157 0.960784
0.705882 0.588235 0.964706
0.772549 0.576471 0.956863
0.850980 0.556863 0.960784
0.913725 0.529412 0.956863
0.988235 0.505882 0.952941
1.000000 0.450980 0.960784
0.635294 0.588235 0.917647
0.596078 0.662745 0.968627
0.623529 0.666667 0.980392
0.682353 0.662745 0.984314
0.764706 0.654902 0.984314
0.839216 0.650980 0.988235
0.929412 0.635294 0.992157
0.996078 0.596078 0.984314
0.996078 0.658824 1.000000
0.568627 0.772549 0.996078
0.564706 0.768627 0.992157
0.576471 0.760784 0.980392
0.623529 0.741176 0.976471
0.694118 0.725490 0.980392
0.796078 0.717647 0.988235
0.905882 0.709804 0.988235
1.000000 0.701961 0.992157
1.000000 0.792157 1.000000
0.627451 0.768627 0.956863
0.513725 0.858824 1.000000
0.525490 0.854902 0.996078
0.576471 0.843137 0.996078
0.643137 0.811765 0.976471
0.725490 0.792157 0.964706
0.862745 0.800000 0.984314
0.976471 0.835294 0.984314
0.992157 0.917647 1.000000
0.717647 0.905882 0.992157
0.600000 0.952941 0.996078
0.607843 0.945098 0.996078
0.658824 0.949020 1.000000
0.733333 0.941176 0.996078
0.827451 0.941176 0.996078
0.917647 0.941176 1.000000
0.988235 0.945098 1.000000
0.976471 0.964706 0.992157
0.623529 0.972549 0.996078
0.478431 1.000000 0.996078
0.517647 0.996078 1.000000
0.592157 1.000000 1.000000
0.698039 1.000000 1.000000
0.827451 0.988235 1.000000
0.925490 0.980392 0.992157
0.984314 0.984314 0.984314
0.996078 0.980392 0.984314
