presets/3.cube
#Generated by lutCreator.js
#Coded by SirSerch
#https://github.com/SirSerch/LutCreatorJs
TITLE lutCreatorJs_25
LUT_3D_SIZE 5
0.003922 0.011765 0.000000
0.423529 0.000000 0.000000
0.839216 0.000000 0.007843
1.000000 0.003922 0.003922
1.000000 0.427451 0.274510
0.486275 0.294118 0.000000
0.450980 0.533333 0.000000
0.894118 0.352941 0.000000
1.000000 0.337255 0.000000
1.000000 0.639216 0.298039
0.419608 0.639216 0.219608
0.243137 0.772549 0.298039
0.831373 0.800000 0.160784
1.000000 0.749020 0.286275
1.000000 0.835294 0.447059
0.643137 0.854902 0.368627
0.309804 1.000000 0.513725
0.698039 0.925490 0.533333
0.992157 0.960784 0.423529
1.000000 0.964706 0.411765
0.882353 0.996078 0.776471
0.772549 1.000000 0.803922
0.858824 1.000000 0.819608
0.956863 0.992157 0.823529
0.996078 0.972549 0.847059
0.000000 0.133333 0.211765
0.278431 0.188235 0.298039
0.615686 0.196078 0.227451
0.890196 0.262745 0.262745
1.000000 0.729412 0.423529
0.509804 0.262745 0.227451
0.388235 0.447059 0.458824
0.784314 0.423529 0.435294
0.992157 0.403922 0.407843
1.000000 0.588235 0.549020
0.494118 0.658824 0.376471
0.247059 0.800000 0.494118
0.807843 0.784314 0.486275
1.000000 0.768627 0.549020
1.000000 0.807843 0.611765
0.643137 0.870588 0.470588
0.286275 0.992157 0.600000
0.709804 0.925490 0.600000
0.984314 0.960784 0.529412
1.000000 0.968627 0.533333
0.905882 0.992157 0.811765
0.792157 0.996078 0.843137
0.878431 0.992157 0.870588
0.960784 0.988235 0.858824
0.996078 0.964706 0.882353
0.000000 0.196078 0.584314
0.211765 0.188235 0.541176
0.588235 0.121569 0.529412
0.874510 0.258824 0.560784
1.000000 0.678431 0.741176
0.556863 0.164706 0.509804
0.372549 0.352941 0.611765
0.749020 0.356863 0.694118
0.968627 0.392157 0.670588
0.992157 0.545098 0.788235
0.584314 0.752941 0.713725
0.329412 0.768627 0.784314
0.772549 0.733333 0.768627
0.988235 0.709804 0.741176
1.000000 0.752941 0.796078
0.674510 0.925490 0.686275
0.125490 1.000000 0.823529
0.654902 0.988235 0.772549
0.980392 0.960784 0.741176
1.000000 0.964706 0.733333
0.921569 0.980392 0.898039
0.741176 1.000000 0.890196
0.898039 0.992157 0.929412
0.964706 0.980392 0.925490
1.000000 0.972549 0.949020
0.211765 0.219608 0.560784
0.294118 0.247059 0.584314
0.592157 0.262745 0.698039
0.870588 0.239216 0.780392
1.000000 0.537255 0.952941
0.615686 0.270588 0.713725
0.490196 0.411765 0.792157
0.733333 0.403922 0.843137
0.968627 0.352941 0.866667
0.996078 0.482353 0.984314
0.549020 0.596078 0.752941
0.419608 0.603922 0.776471
0.678431 0.627451 0.847059
0.980392 0.627451 0.909804
1.000000 0.678431 0.960784
0.619608 0.898039 0.913725
0.141176 0.972549 0.984314
0.584314 0.956863 0.964706
0.941176 0.913725 0.941176
0.988235 0.941176 0.941176
0.925490 0.968627 0.984314
0.694118 1.000000 0.992157
0.839216 1.000000 0.976471
0.960784 0.980392 0.964706
0.988235 0.984314 0.976471
0.588235 0.490196 0.890196
0.623529 0.498039 0.894118
0.737255 0.462745 0.901961
0.878431 0.411765 0.905882
0.976471 0.588235 1.000000
0.737255 0.431373 0.901961
0.701961 0.564706 0.972549
0.796078 0.529412 0.964706
0.937255 0.490196 0.968627
1.000000 0.576471 1.000000
0.635294 0.588235 0.917647
0.623529 0.666667 0.980392
0.764706 0.654902 0.984314
0.929412 0.635294 0.992157
0.996078 0.658824 1.000000
0.627451 0.768627 0.956863
0.525490 0.854902 0.996078
0.643137 0.811765 0.976471
0.862745 0.800000 0.984314
0.992157 0.917647 1.000000
0.623529 0.972549 0.996078
0.517647 0.996078 1.000000
0.698039 1.000000 1.000000
0.925490 0.980392 0.992157
0.996078 0.980392 0.984314
